;FLAVOR:Marlin
;TIME:17989
;Filament used: 12.0494m
;Layer height: 0.2
;MINX:12.157
;MINY:16.057
;MINZ:0.2
;MAXX:220.794
;MAXY:215.267
;MAXZ:15.4
;Generated with Cura_SteamEngine 5.3.1
M140 S50
M105
M190 S50
M104 S200
M105
M109 S200
M82 ;absolute extrusion mode
; Ender 3 Custom Start G-code
G92 E0 ; Reset Extruder
G28 ; Home all axes
G1 Z2.0 F3000 ; Move Z Axis up little to prevent scratching of Heat Bed
G1 X0.1 Y20 Z0.3 F5000.0 ; Move to start position
G1 X0.1 Y200.0 Z0.3 F1500.0 E15 ; Draw the first line
G1 X0.4 Y200.0 Z0.3 F5000.0 ; Move to side a little
G1 X0.4 Y20 Z0.3 F1500.0 E30 ; Draw the second line
G92 E0 ; Reset Extruder
G1 Z2.0 F3000 ; Move Z Axis up little to prevent scratching of Heat Bed
G1 X5 Y20 Z0.3 F5000.0 ; Move over to prevent blob squish
G92 E0
G92 E0
G1 F2700 E-5
;LAYER_COUNT:78
;LAYER:0
M107
G0 F6000 X28.382 Y30.881 Z0.2
;TYPE:SKIRT
G1 F2700 E0
G1 F1200 X29.91 Y29.537 E0.06768
G1 X30.364 Y29.148 E0.08757
G1 X30.862 Y28.748 E0.10881
G1 X31.767 Y28.066 E0.1465
G1 X33.617 Y26.725 E0.2225
G1 X34.074 Y26.403 E0.24109
G1 X34.611 Y26.05 E0.26247
G1 X35.69 Y25.389 E0.30455
G1 X37.572 Y24.282 E0.37718
G1 X38.408 Y23.809 E0.40912
G1 X39.497 Y23.228 E0.45018
G1 X41.781 Y21.969 E0.53692
G1 X43.982 Y20.673 E0.62187
G1 X46.147 Y19.315 E0.70687
G1 X47.388 Y18.51 E0.75607
G1 X48.167 Y18.053 E0.78611
G1 X48.983 Y17.667 E0.81614
G1 X49.83 Y17.354 E0.84617
G1 X50.702 Y17.117 E0.87622
G1 X51.591 Y16.958 E0.90626
G1 X52.756 Y16.871 E0.94512
G1 X53.501 Y16.859 E0.9699
G1 X68.891 Y16.857 E1.48177
G1 X69.746 Y16.868 E1.51021
G1 X70.648 Y16.921 E1.54027
G1 X71.541 Y17.053 E1.57029
G1 X72.42 Y17.264 E1.60036
G1 X73.276 Y17.551 E1.63038
G1 X74.103 Y17.913 E1.66041
G1 X74.95 Y18.381 E1.6926
G1 X75.721 Y18.857 E1.72273
G1 X76.683 Y19.468 E1.76064
G1 X78.86 Y20.765 E1.84492
G1 X81.077 Y22.001 E1.92934
G1 X83.363 Y23.194 E2.01511
G1 X84.729 Y23.868 E2.06577
G1 X86.417 Y24.715 E2.12858
G1 X88.7 Y25.779 E2.21236
G1 X91.059 Y26.799 E2.29784
G1 X93.428 Y27.744 E2.38267
G1 X95.767 Y28.602 E2.46554
G1 X98.212 Y29.42 E2.55129
G1 X100.625 Y30.154 E2.63517
G1 X103.074 Y30.822 E2.7196
G1 X105.549 Y31.424 E2.80432
G1 X108.033 Y31.953 E2.88879
G1 X110.523 Y32.411 E2.973
G1 X113.046 Y32.801 E3.05791
G1 X115.552 Y33.117 E3.14192
G1 X118.08 Y33.363 E3.2264
G1 X120.608 Y33.536 E3.31068
G1 X123.173 Y33.64 E3.39606
G1 X125.672 Y33.67 E3.47919
G1 X128.24 Y33.628 E3.56461
G1 X130.771 Y33.515 E3.64887
G1 X133.309 Y33.33 E3.73351
G1 X135.82 Y33.076 E3.81745
G1 X138.343 Y32.747 E3.90208
G1 X140.876 Y32.345 E3.98738
G1 X143.324 Y31.884 E4.07023
G1 X149.963 Y30.417 E4.29638
G1 X151.733 Y30.055 E4.35646
G1 X155.059 Y29.425 E4.46905
G1 X156.637 Y29.15 E4.52233
G1 X159.932 Y28.622 E4.63332
G1 X161.497 Y28.391 E4.68594
G1 X164.876 Y27.939 E4.79932
G1 X166.174 Y27.781 E4.84281
G1 X169.213 Y27.446 E4.9445
G1 X171.041 Y27.274 E5.00557
G1 X177.93 Y26.732 E5.23541
G1 X178.78 Y26.676 E5.26374
G1 X179.683 Y26.657 E5.29378
G1 X180.584 Y26.718 E5.32382
G1 X181.476 Y26.858 E5.35385
G1 X182.352 Y27.076 E5.38387
G1 X183.206 Y27.372 E5.41394
G1 X184.03 Y27.741 E5.44396
G1 X184.818 Y28.182 E5.474
G1 X185.564 Y28.692 E5.50405
G1 X186.262 Y29.265 E5.53409
G1 X186.648 Y29.63 E5.55176
G1 X187.06 Y30.042 E5.57114
G1 X188.296 Y31.31 E5.63003
G1 X190.134 Y33.093 E5.7152
G1 X191.988 Y34.792 E5.79885
G1 X193.933 Y36.475 E5.88439
G1 X195.888 Y38.072 E5.96835
G1 X197.903 Y39.627 E6.05301
G1 X199.921 Y41.093 E6.13597
G1 X202.065 Y42.56 E6.22237
G1 X204.186 Y43.926 E6.30628
G1 X206.367 Y45.244 E6.39104
G1 X208.077 Y46.221 E6.45654
G1 X208.841 Y46.704 E6.48661
G1 X209.558 Y47.252 E6.51662
G1 X210.225 Y47.861 E6.54666
G1 X210.835 Y48.527 E6.5767
G1 X211.384 Y49.244 E6.60674
G1 X211.867 Y50.007 E6.63677
G1 X212.281 Y50.81 E6.66682
G1 X212.622 Y51.646 E6.69685
G1 X212.987 Y52.93 E6.74125
G1 X213.152 Y53.698 E6.76737
G1 X213.444 Y55.164 E6.81709
G1 X214.007 Y57.622 E6.90096
G1 X214.644 Y60.075 E6.98525
G1 X215.352 Y62.521 E7.06995
G1 X216.121 Y64.92 E7.15374
G1 X216.977 Y67.351 E7.23946
G1 X217.827 Y69.571 E7.31852
G1 X218.157 Y70.398 E7.34814
G1 X218.454 Y71.251 E7.37818
G1 X218.675 Y72.126 E7.4082
G1 X218.817 Y73.018 E7.43824
G1 X218.88 Y73.919 E7.46828
G1 X218.854 Y74.948 E7.50252
G1 X218.742 Y76.43 E7.55195
G1 X218.588 Y79.063 E7.63967
G1 X218.512 Y81.569 E7.72306
G1 X218.506 Y84.139 E7.80854
G1 X218.597 Y87.54 E7.9217
G1 X218.6 Y95.86 E8.19842
G1 X218.589 Y96.57 E8.22204
G1 X218.535 Y97.472 E8.25209
G1 X218.42 Y98.268 E8.27884
G1 X218.326 Y98.776 E8.29603
G1 X217.9 Y101.264 E8.37998
G1 X217.538 Y103.813 E8.46561
G1 X217.251 Y106.338 E8.55013
G1 X217.037 Y108.846 E8.63385
G1 X216.894 Y111.391 E8.71863
G1 X216.822 Y113.935 E8.80328
G1 X216.822 Y116.469 E8.88756
G1 X216.894 Y119.027 E8.97268
G1 X217.037 Y121.534 E9.05619
G1 X217.253 Y124.065 E9.14068
G1 X217.541 Y126.605 E9.2257
G1 X217.9 Y129.123 E9.3103
G1 X218.328 Y131.617 E9.39446
G1 X218.82 Y134.074 E9.47781
G1 X219.407 Y136.624 E9.56484
G1 X219.675 Y137.687 E9.6013
G1 X219.857 Y138.572 E9.63135
G1 X219.979 Y139.871 E9.67475
G1 X219.994 Y140.51 E9.696
G1 X219.993 Y151.686 E10.06772
G1 X219.984 Y152.413 E10.0919
G1 X219.933 Y153.315 E10.12195
G1 X219.802 Y154.209 E10.152
G1 X219.593 Y155.087 E10.18202
G1 X219.307 Y155.944 E10.21207
G1 X218.946 Y156.772 E10.24211
G1 X218.514 Y157.564 E10.27212
G1 X218.013 Y158.316 E10.30217
G1 X217.447 Y159.02 E10.33222
G1 X216.822 Y159.671 E10.36223
G1 X216.141 Y160.265 E10.39229
G1 X215.41 Y160.796 E10.42234
G1 X214.636 Y161.26 E10.45235
G1 X213.823 Y161.654 E10.4824
G1 X212.979 Y161.974 E10.51242
G1 X212.109 Y162.219 E10.54249
G1 X211.222 Y162.385 E10.5725
G1 X210.239 Y162.477 E10.60534
G1 X207.783 Y162.586 E10.68711
G1 X205.22 Y162.771 E10.77257
G1 X202.71 Y163.023 E10.85648
G1 X200.21 Y163.345 E10.94031
G1 X197.667 Y163.747 E11.02594
G1 X195.202 Y164.208 E11.10935
G1 X192.719 Y164.744 E11.19384
G1 X190.253 Y165.353 E11.27832
G1 X187.771 Y166.039 E11.36397
G1 X185.368 Y166.777 E11.44758
G1 X182.956 Y167.594 E11.53228
G1 X180.577 Y168.474 E11.61664
G1 X178.227 Y169.421 E11.70091
G1 X175.876 Y170.446 E11.78622
G1 X173.6 Y171.516 E11.86986
G1 X171.306 Y172.675 E11.95535
G1 X169.093 Y173.872 E12.03903
G1 X166.89 Y175.146 E12.12367
G1 X164.745 Y176.469 E12.20749
G1 X162.598 Y177.879 E12.29293
G1 X160.522 Y179.328 E12.37713
G1 X158.492 Y180.831 E12.46114
G1 X156.493 Y182.4 E12.54566
G1 X154.539 Y184.027 E12.63023
G1 X152.619 Y185.72 E12.71537
G1 X150.778 Y187.436 E12.79908
G1 X148.973 Y189.216 E12.88339
G1 X147.204 Y191.064 E12.96848
G1 X145.503 Y192.944 E13.0528
G1 X143.859 Y194.87 E13.13703
G1 X142.258 Y196.853 E13.22179
G1 X140.728 Y198.864 E13.30584
G1 X138.637 Y201.814 E13.4261
G1 X138.062 Y202.661 E13.46015
G1 X137.522 Y203.385 E13.49019
G1 X136.921 Y204.058 E13.5202
G1 X136.262 Y204.676 E13.55025
G1 X135.551 Y205.233 E13.58029
G1 X134.793 Y205.725 E13.61035
G1 X134.069 Y206.112 E13.63765
G1 X133.497 Y206.389 E13.65879
G1 X132.667 Y206.746 E13.68884
G1 X131.685 Y207.063 E13.72316
G1 X130.638 Y207.343 E13.75921
G1 X128.106 Y208.058 E13.84672
G1 X125.658 Y208.825 E13.93204
G1 X123.3 Y209.638 E14.015
G1 X120.912 Y210.538 E14.09988
G1 X118.555 Y211.502 E14.18458
G1 X116.231 Y212.531 E14.26911
G1 X114.56 Y213.312 E14.33046
G1 X113.725 Y213.657 E14.36051
G1 X113.139 Y213.85 E14.38103
G1 X112.629 Y214.001 E14.39872
G1 X111.752 Y214.219 E14.42878
G1 X110.634 Y214.381 E14.46635
G1 X110.115 Y214.427 E14.48368
G1 X109.212 Y214.467 E14.51374
G1 X108.509 Y214.443 E14.53714
G1 X107.831 Y214.396 E14.55974
G1 X106.933 Y214.293 E14.58981
G1 X105.824 Y214.053 E14.62755
G1 X104.952 Y213.804 E14.65771
G1 X103.911 Y213.472 E14.69405
G1 X102.983 Y213.164 E14.72657
G1 X101.687 Y212.763 E14.77169
G1 X100.919 Y212.492 E14.79878
G1 X99.416 Y211.892 E14.85261
G1 X97.106 Y211.016 E14.93478
G1 X96.4 Y210.758 E14.95978
G1 X95.422 Y210.386 E14.99458
G1 X93.594 Y209.662 E15.05997
G1 X91.183 Y208.783 E15.14533
G1 X88.779 Y207.983 E15.2296
G1 X86.277 Y207.228 E15.31652
G1 X84.521 Y206.725 E15.37727
G1 X83.919 Y206.532 E15.3983
G1 X82.626 Y206.073 E15.44393
G1 X80.193 Y205.245 E15.52941
G1 X77.74 Y204.486 E15.61482
G1 X75.315 Y203.809 E15.69856
G1 X72.821 Y203.19 E15.78402
G1 X70.306 Y202.64 E15.86965
G1 X69.362 Y202.451 E15.90167
G1 X68.485 Y202.235 E15.93171
G1 X67.63 Y201.942 E15.96177
G1 X66.805 Y201.575 E15.9918
G1 X66.016 Y201.136 E16.02184
G1 X65.269 Y200.629 E16.05186
G1 X64.65 Y200.129 E16.07833
G1 X64.166 Y199.7 E16.09984
G1 X60.708 Y196.481 E16.25697
G1 X58.776 Y194.733 E16.34363
G1 X56.833 Y193.072 E16.42865
G1 X54.886 Y191.5 E16.51188
G1 X52.85 Y189.951 E16.59697
G1 X50.784 Y188.468 E16.68155
G1 X48.683 Y187.049 E16.76588
G1 X46.526 Y185.679 E16.85087
G1 X44.373 Y184.395 E16.93424
G1 X42.125 Y183.141 E17.01986
G1 X39.898 Y181.978 E17.10342
G1 X37.607 Y180.863 E17.18817
G1 X35.279 Y179.812 E17.27312
G1 X32.281 Y178.567 E17.38109
G1 X31.463 Y178.185 E17.41112
G1 X30.682 Y177.731 E17.44116
G1 X29.945 Y177.21 E17.47118
G1 X29.256 Y176.626 E17.50122
G1 X28.622 Y175.983 E17.53126
G1 X28.047 Y175.286 E17.56131
G1 X27.535 Y174.542 E17.59135
G1 X27.092 Y173.755 E17.62139
G1 X26.72 Y172.932 E17.65143
G1 X26.423 Y172.079 E17.68147
G1 X26.202 Y171.204 E17.71148
G1 X26.059 Y170.312 E17.74153
G1 X25.995 Y169.411 E17.77157
G1 X25.996 Y168.873 E17.78947
G1 X26.041 Y167.18 E17.8458
G1 X26.063 Y164.546 E17.93341
G1 X26.012 Y162.013 E18.01767
G1 X25.889 Y159.47 E18.10235
G1 X25.726 Y157.284 E18.17526
G1 X25.623 Y156.091 E18.21509
G1 X25.589 Y155.504 E18.23464
G1 X25.576 Y154.897 E18.25484
G1 X25.577 Y153.161 E18.31258
G1 X25.599 Y151.662 E18.36244
G1 X25.64 Y150.204 E18.41095
G1 X25.638 Y147.647 E18.496
G1 X25.585 Y145.479 E18.56813
G1 X25.58 Y144.874 E18.58825
G1 X25.599 Y143.877 E18.62142
G1 X25.658 Y142.976 E18.65145
G1 X25.733 Y142.44 E18.66945
G1 X25.92 Y141.313 E18.70745
G1 X26.007 Y140.834 E18.72364
G1 X26.389 Y138.324 E18.80808
G1 X26.699 Y135.807 E18.89243
G1 X26.936 Y133.301 E18.97615
G1 X27.104 Y130.755 E19.06102
G1 X27.2 Y128.215 E19.14556
G1 X27.225 Y125.645 E19.23104
G1 X27.178 Y123.148 E19.31411
G1 X27.057 Y120.581 E19.39958
G1 X26.867 Y118.06 E19.48367
G1 X26.602 Y115.522 E19.56854
G1 X26.27 Y113.018 E19.65255
G1 X25.866 Y110.517 E19.73681
G1 X25.389 Y108.016 E19.8215
G1 X24.852 Y105.573 E19.90469
G1 X24.225 Y103.069 E19.99055
G1 X23.539 Y100.619 E20.07517
G1 X22.781 Y98.186 E20.15993
G1 X21.965 Y95.802 E20.24373
G1 X21.071 Y93.414 E20.32854
G1 X20.12 Y91.076 E20.41249
G1 X19.09 Y88.739 E20.49743
G1 X17.801 Y86.037 E20.59701
G1 X17.249 Y84.926 E20.63827
G1 X16.969 Y84.342 E20.65981
G1 X16.738 Y83.822 E20.67873
G1 X16.507 Y83.251 E20.69922
G1 X15.518 Y80.63 E20.7924
G1 X15.276 Y79.958 E20.81615
G1 X15.092 Y79.397 E20.83579
G1 X14.91 Y78.766 E20.85763
G1 X14.235 Y76.218 E20.9453
G1 X14.035 Y75.42 E20.97266
G1 X13.907 Y74.839 E20.99245
G1 X13.805 Y74.272 E21.01161
G1 X13.35 Y71.39 E21.10865
G1 X13.249 Y70.676 E21.13264
G1 X13.172 Y69.939 E21.15729
G1 X13.125 Y69.234 E21.18079
G1 X12.994 Y66.72 E21.26452
G1 X12.957 Y65.775 E21.29597
G1 X12.962 Y64.861 E21.32637
G1 X13.117 Y61.838 E21.42705
G1 X13.171 Y61.006 E21.45478
G1 X13.226 Y60.427 E21.47412
G1 X13.303 Y59.845 E21.49365
G1 X13.733 Y57.105 E21.5859
G1 X13.878 Y56.257 E21.61451
G1 X13.997 Y55.67 E21.63443
G1 X14.133 Y55.108 E21.65366
G1 X14.868 Y52.333 E21.74914
G1 X15.052 Y51.678 E21.77177
G1 X15.214 Y51.156 E21.78995
G1 X15.435 Y50.523 E21.81225
G1 X16.42 Y47.917 E21.90491
G1 X16.694 Y47.225 E21.92967
G1 X16.92 Y46.698 E21.94874
G1 X17.189 Y46.127 E21.96973
G1 X18.4 Y43.696 E22.06006
G1 X18.624 Y43.26 E22.07637
G1 X18.945 Y42.682 E22.09836
G1 X19.555 Y41.663 E22.13786
G1 X20.967 Y39.419 E22.22604
G1 X21.399 Y38.788 E22.25147
G1 X22.28 Y37.602 E22.30061
G1 X23.507 Y36.014 E22.36736
G1 X23.834 Y35.603 E22.38483
G1 X24.243 Y35.121 E22.40585
G1 X25.117 Y34.155 E22.44918
G1 X26.565 Y32.613 E22.51954
G1 X26.931 Y32.233 E22.53708
G1 X27.394 Y31.782 E22.55858
G1 X28.382 Y30.881 E22.60306
G0 F6000 X28.112 Y30.585
G1 F1200 X29.65 Y29.233 E22.67116
G1 X30.114 Y28.836 E22.69147
G1 X30.621 Y28.429 E22.7131
G1 X31.532 Y27.742 E22.75105
G1 X33.387 Y26.398 E22.82724
G1 X33.854 Y26.069 E22.84624
G1 X34.402 Y25.709 E22.86805
G1 X35.487 Y25.044 E22.91037
G1 X37.375 Y23.934 E22.98322
G1 X38.22 Y23.456 E23.01551
G1 X39.309 Y22.875 E23.05656
G1 X41.578 Y21.624 E23.14274
G1 X43.779 Y20.328 E23.22769
G1 X45.934 Y18.976 E23.3123
G1 X47.17 Y18.174 E23.36131
G1 X47.996 Y17.691 E23.39313
G1 X48.812 Y17.305 E23.42316
G1 X49.725 Y16.968 E23.45553
G1 X50.632 Y16.723 E23.48677
G1 X51.521 Y16.564 E23.51681
G1 X52.75 Y16.471 E23.55781
G1 X53.501 Y16.459 E23.58279
G1 X68.896 Y16.457 E24.09483
G1 X69.769 Y16.469 E24.12387
G1 X70.706 Y16.525 E24.15509
G1 X71.599 Y16.657 E24.18511
G1 X72.513 Y16.875 E24.21636
G1 X73.403 Y17.172 E24.24757
G1 X74.296 Y17.563 E24.27999
G1 X75.16 Y18.041 E24.31283
G1 X75.935 Y18.519 E24.34312
G1 X76.888 Y19.124 E24.38066
G1 X79.065 Y20.421 E24.46495
G1 X81.262 Y21.646 E24.54861
G1 X83.54 Y22.835 E24.63408
G1 X84.908 Y23.51 E24.68481
G1 X86.586 Y24.352 E24.74726
G1 X88.869 Y25.416 E24.83103
G1 X91.207 Y26.427 E24.91575
G1 X93.566 Y27.368 E25.00023
G1 X95.905 Y28.227 E25.0831
G1 X98.328 Y29.037 E25.16807
G1 X100.741 Y29.771 E25.25196
G1 X103.169 Y30.433 E25.33567
G1 X105.644 Y31.036 E25.42039
G1 X108.117 Y31.562 E25.50448
G1 X110.584 Y32.016 E25.58792
G1 X113.096 Y32.404 E25.67246
G1 X115.602 Y32.72 E25.75647
G1 X118.113 Y32.964 E25.84038
G1 X120.624 Y33.136 E25.92409
G1 X123.189 Y33.24 E26.00947
G1 X125.67 Y33.27 E26.09199
G1 X128.222 Y33.228 E26.17689
G1 X130.753 Y33.115 E26.26115
G1 X133.276 Y32.931 E26.34529
G1 X135.768 Y32.679 E26.4286
G1 X138.291 Y32.35 E26.51322
G1 X140.813 Y31.95 E26.59815
G1 X143.238 Y31.493 E26.68023
G1 X149.883 Y30.025 E26.90657
G1 X151.659 Y29.662 E26.96686
G1 X154.99 Y29.031 E27.07962
G1 X156.574 Y28.755 E27.1331
G1 X159.874 Y28.226 E27.24426
G1 X161.444 Y27.995 E27.29704
G1 X164.828 Y27.542 E27.4106
G1 X166.13 Y27.383 E27.45422
G1 X169.176 Y27.048 E27.55614
G1 X171.01 Y26.875 E27.61741
G1 X177.904 Y26.333 E27.84742
G1 X178.772 Y26.276 E27.87635
G1 X179.675 Y26.257 E27.90639
G1 X180.646 Y26.323 E27.93876
G1 X181.573 Y26.47 E27.96998
G1 X182.483 Y26.698 E28.00118
G1 X183.337 Y26.994 E28.03124
G1 X184.225 Y27.392 E28.06361
G1 X185.044 Y27.852 E28.09485
G1 X185.818 Y28.383 E28.12607
G1 X186.537 Y28.974 E28.15702
G1 X186.923 Y29.339 E28.17469
G1 X187.346 Y29.763 E28.19461
G1 X188.575 Y31.023 E28.25316
G1 X190.411 Y32.804 E28.33823
G1 X192.25 Y34.49 E28.42121
G1 X194.186 Y36.165 E28.50636
G1 X196.132 Y37.755 E28.58994
G1 X198.138 Y39.303 E28.67422
G1 X200.156 Y40.769 E28.75718
G1 X202.282 Y42.224 E28.84286
G1 X204.403 Y43.59 E28.92677
G1 X206.574 Y44.902 E29.01114
G1 X208.291 Y45.883 E29.07691
G1 X209.084 Y46.386 E29.10815
G1 X209.801 Y46.934 E29.13816
G1 X210.52 Y47.591 E29.17056
G1 X211.153 Y48.284 E29.20177
G1 X211.702 Y49.001 E29.23181
G1 X212.223 Y49.824 E29.2642
G1 X212.637 Y50.627 E29.29425
G1 X213.007 Y51.537 E29.32693
G1 X213.372 Y52.821 E29.37132
G1 X213.544 Y53.62 E29.39851
G1 X213.834 Y55.075 E29.44785
G1 X214.394 Y57.521 E29.53131
G1 X215.028 Y59.964 E29.61526
G1 X215.733 Y62.399 E29.69957
G1 X216.498 Y64.787 E29.78297
G1 X217.351 Y67.208 E29.86835
G1 X218.199 Y69.423 E29.94723
G1 X218.535 Y70.266 E29.97742
G1 X218.832 Y71.119 E30.00746
G1 X219.063 Y72.028 E30.03865
G1 X219.216 Y72.99 E30.07105
G1 X219.28 Y73.929 E30.10236
G1 X219.253 Y74.978 E30.13726
G1 X219.141 Y76.46 E30.18669
G1 X218.988 Y79.075 E30.27381
G1 X218.912 Y81.581 E30.3572
G1 X218.906 Y84.14 E30.44231
G1 X218.997 Y87.54 E30.55544
G1 X219 Y95.866 E30.83236
G1 X218.988 Y96.594 E30.85658
G1 X218.931 Y97.529 E30.88774
G1 X218.813 Y98.341 E30.91503
G1 X218.719 Y98.849 E30.93221
G1 X218.294 Y101.332 E31.016
G1 X217.934 Y103.869 E31.10122
G1 X217.65 Y106.372 E31.18501
G1 X217.435 Y108.88 E31.26873
G1 X217.294 Y111.402 E31.35274
G1 X217.222 Y113.946 E31.43739
G1 X217.222 Y116.469 E31.5213
G1 X217.294 Y119.016 E31.60605
G1 X217.436 Y121.5 E31.68881
G1 X217.651 Y124.031 E31.77329
G1 X217.937 Y126.549 E31.85758
G1 X218.294 Y129.055 E31.94177
