;FLAVOR:Marlin
;TIME:7070
;Filament used: 4.37346m
;Layer height: 0.2
;MINX:53.75
;MINY:57.542
;MINZ:0.2
;MAXX:181.25
;MAXY:134.557
;MAXZ:15.4
;Generated with Cura_SteamEngine 5.3.1
M140 S50
M105
M190 S50
M104 S200
M105
M109 S200
M82 ;absolute extrusion mode
; Ender 3 Custom Start G-code
G92 E0 ; Reset Extruder
G28 ; Home all axes
G1 Z2.0 F3000 ; Move Z Axis up little to prevent scratching of Heat Bed
G1 X0.1 Y20 Z0.3 F5000.0 ; Move to start position
G1 X0.1 Y200.0 Z0.3 F1500.0 E15 ; Draw the first line
G1 X0.4 Y200.0 Z0.3 F5000.0 ; Move to side a little
G1 X0.4 Y20 Z0.3 F1500.0 E30 ; Draw the second line
G92 E0 ; Reset Extruder
G1 Z2.0 F3000 ; Move Z Axis up little to prevent scratching of Heat Bed
G1 X5 Y20 Z0.3 F5000.0 ; Move over to prevent blob squish
G92 E0
G92 E0
G1 F2700 E-5
;LAYER_COUNT:78
;LAYER:0
M107
G0 F6000 X61.378 Y85.14 Z0.2
;TYPE:SKIRT
G1 F2700 E0
G1 F1200 X62.139 Y84.652 E0.03007
G1 X62.67 Y84.364 E0.05016
G1 X65.279 Y83.05 E0.14732
G1 X67.48 Y81.858 E0.23057
G1 X69.698 Y80.576 E0.31578
G1 X71.835 Y79.258 E0.39929
G1 X73.997 Y77.84 E0.48528
G1 X76.056 Y76.402 E0.56881
G1 X78.087 Y74.898 E0.65287
G1 X80.102 Y73.316 E0.73808
G1 X82.043 Y71.701 E0.82206
G1 X83.97 Y70.003 E0.90748
G1 X85.828 Y68.271 E0.99197
G1 X87.594 Y66.529 E1.07447
G1 X89.376 Y64.667 E1.16019
G1 X91.292 Y62.542 E1.25536
G1 X91.91 Y61.836 E1.28656
G1 X92.534 Y61.184 E1.31658
G1 X93.213 Y60.588 E1.34663
G1 X93.942 Y60.056 E1.37665
G1 X94.716 Y59.59 E1.4067
G1 X95.528 Y59.194 E1.43674
G1 X96.371 Y58.871 E1.46677
G1 X97.24 Y58.625 E1.49681
G1 X98.127 Y58.456 E1.52684
G1 X99.236 Y58.357 E1.56387
G1 X99.847 Y58.342 E1.5842
G1 X105.667 Y58.342 E1.77778
G1 X106.36 Y58.352 E1.80083
G1 X106.801 Y58.368 E1.8155
G1 X109.641 Y58.532 E1.91012
G1 X112.187 Y58.605 E1.99484
G1 X114.721 Y58.605 E2.07912
G1 X117.269 Y58.534 E2.1639
G1 X120.15 Y58.369 E2.25988
G1 X120.579 Y58.353 E2.27416
G1 X121.31 Y58.342 E2.29847
G1 X133.301 Y58.342 E2.69729
G1 X134.005 Y58.353 E2.72071
G1 X134.907 Y58.407 E2.75077
G1 X135.8 Y58.541 E2.7808
G1 X136.678 Y58.753 E2.81084
G1 X137.534 Y59.042 E2.84089
G1 X138.36 Y59.405 E2.8709
G1 X139.152 Y59.84 E2.90095
G1 X139.901 Y60.344 E2.93098
G1 X140.604 Y60.912 E2.96104
G1 X141.407 Y61.706 E2.9986
G1 X142.111 Y62.484 E3.0335
G1 X143.886 Y64.387 E3.12005
G1 X145.677 Y66.203 E3.20488
G1 X147.508 Y67.956 E3.28919
G1 X149.41 Y69.679 E3.37455
G1 X151.318 Y71.31 E3.45804
G1 X153.29 Y72.902 E3.54233
G1 X155.347 Y74.467 E3.6283
G1 X157.372 Y75.921 E3.71122
G1 X159.513 Y77.368 E3.79716
G1 X161.613 Y78.702 E3.87991
G1 X163.813 Y80.014 E3.96511
G1 X166.049 Y81.262 E4.05028
G1 X168.273 Y82.423 E4.13372
G1 X170.646 Y83.578 E4.2215
G1 X172.031 Y84.22 E4.27227
G1 X172.833 Y84.635 E4.30231
G1 X173.595 Y85.121 E4.33237
G1 X174.31 Y85.671 E4.36237
G1 X174.975 Y86.283 E4.39243
G1 X175.582 Y86.951 E4.42245
G1 X176.129 Y87.67 E4.4525
G1 X176.609 Y88.435 E4.48253
G1 X177.02 Y89.239 E4.51257
G1 X177.358 Y90.077 E4.54262
G1 X177.621 Y90.941 E4.57266
G1 X177.806 Y91.825 E4.6027
G1 X177.912 Y92.721 E4.63271
G1 X177.938 Y93.257 E4.65056
G1 X178.007 Y96.535 E4.75961
G1 X178.132 Y99.031 E4.84273
G1 X178.334 Y101.605 E4.9286
G1 X178.6 Y104.097 E5.01196
G1 X178.939 Y106.611 E5.09633
G1 X179.353 Y109.128 E5.18117
G1 X179.843 Y111.658 E5.26688
G1 X180.207 Y113.333 E5.32389
G1 X180.36 Y114.223 E5.35393
G1 X180.435 Y115.191 E5.38622
G1 X180.45 Y115.83 E5.40748
G1 X180.449 Y118.938 E5.51085
G1 X180.439 Y119.64 E5.5342
G1 X180.386 Y120.542 E5.56426
G1 X180.254 Y121.435 E5.59428
G1 X180.043 Y122.313 E5.62431
G1 X179.755 Y123.169 E5.65435
G1 X179.393 Y123.997 E5.68441
G1 X178.959 Y124.789 E5.71445
G1 X178.456 Y125.539 E5.74448
G1 X177.89 Y126.242 E5.7745
G1 X177.263 Y126.892 E5.80454
G1 X176.53 Y127.524 E5.83673
G1 X174.313 Y129.261 E5.9304
G1 X172.281 Y130.951 E6.01831
G1 X171.889 Y131.288 E6.0355
G1 X171.178 Y131.845 E6.06554
G1 X170.421 Y132.337 E6.09557
G1 X169.623 Y132.76 E6.12561
G1 X168.791 Y133.111 E6.15565
G1 X167.931 Y133.387 E6.18569
G1 X167.05 Y133.586 E6.21573
G1 X166.155 Y133.706 E6.24576
G1 X165.575 Y133.742 E6.26509
G1 X164.936 Y133.757 E6.28635
G1 X65.312 Y133.757 E9.59986
G1 X64.613 Y133.747 E9.62311
G1 X63.712 Y133.694 E9.65313
G1 X62.818 Y133.562 E9.68318
G1 X61.94 Y133.351 E9.71322
G1 X61.084 Y133.063 E9.74326
G1 X60.257 Y132.701 E9.77328
G1 X59.465 Y132.267 E9.80332
G1 X58.714 Y131.764 E9.83338
G1 X58.011 Y131.197 E9.86342
G1 X57.361 Y130.57 E9.89346
G1 X56.769 Y129.888 E9.9235
G1 X56.24 Y129.157 E9.95351
G1 X55.777 Y128.381 E9.98356
G1 X55.385 Y127.568 E10.01358
G1 X55.066 Y126.723 E10.04362
G1 X54.823 Y125.853 E10.07367
G1 X54.658 Y124.965 E10.10371
G1 X54.563 Y123.831 E10.14156
G1 X54.55 Y123.224 E10.16175
G1 X54.551 Y120.041 E10.26762
G1 X54.567 Y118.897 E10.30567
G1 X54.567 Y116.273 E10.39295
G1 X54.552 Y115.437 E10.42076
G1 X54.557 Y113.144 E10.49702
G1 X54.551 Y111.987 E10.5355
G1 X54.562 Y111.284 E10.55889
G1 X54.616 Y110.383 E10.58891
G1 X54.787 Y109.309 E10.62508
G1 X55.004 Y108.295 E10.65957
G1 X55.142 Y107.691 E10.68018
G1 X55.647 Y105.182 E10.7653
G1 X56.08 Y102.662 E10.85035
G1 X56.436 Y100.18 E10.93374
G1 X56.725 Y97.637 E11.01887
G1 X56.945 Y95.077 E11.10433
G1 X57.047 Y93.292 E11.16379
G1 X57.085 Y92.754 E11.18173
G1 X57.189 Y91.857 E11.21177
G1 X57.371 Y90.973 E11.24178
G1 X57.631 Y90.108 E11.27183
G1 X57.967 Y89.269 E11.30189
G1 X58.375 Y88.464 E11.3319
G1 X58.853 Y87.697 E11.36196
G1 X59.397 Y86.976 E11.392
G1 X60.002 Y86.306 E11.42203
G1 X60.664 Y85.692 E11.45206
G1 X61.378 Y85.14 E11.48207
G0 F6000 X61.162 Y84.803
G1 F1200 X61.948 Y84.3 E11.51311
G1 X62.49 Y84.007 E11.5336
G1 X65.089 Y82.698 E11.63039
G1 X67.29 Y81.506 E11.71364
G1 X69.498 Y80.23 E11.79846
G1 X71.625 Y78.918 E11.88158
G1 X73.768 Y77.512 E11.96683
G1 X75.827 Y76.074 E12.05036
G1 X77.84 Y74.583 E12.13368
G1 X79.855 Y73.001 E12.21889
G1 X81.787 Y71.394 E12.30247
G1 X83.697 Y69.71 E12.38716
G1 X85.555 Y67.978 E12.47165
G1 X87.313 Y66.244 E12.55377
G1 X89.087 Y64.39 E12.63912
G1 X90.995 Y62.274 E12.73388
G1 X91.621 Y61.559 E12.76549
G1 X92.27 Y60.883 E12.79666
G1 X92.949 Y60.287 E12.82671
G1 X93.736 Y59.713 E12.85911
G1 X94.541 Y59.23 E12.89033
G1 X95.385 Y58.82 E12.92154
G1 X96.228 Y58.497 E12.95157
G1 X97.165 Y58.232 E12.98395
G1 X98.052 Y58.063 E13.01399
G1 X99.226 Y57.957 E13.05319
G1 X99.837 Y57.942 E13.07352
G1 X105.673 Y57.942 E13.26763
G1 X106.375 Y57.952 E13.29098
G1 X106.824 Y57.969 E13.30592
G1 X109.652 Y58.132 E13.40014
G1 X112.198 Y58.205 E13.48485
G1 X114.71 Y58.205 E13.5684
G1 X117.258 Y58.134 E13.65318
G1 X120.127 Y57.97 E13.74876
G1 X120.573 Y57.953 E13.76361
G1 X121.304 Y57.942 E13.78792
G1 X133.307 Y57.942 E14.18714
G1 X134.029 Y57.954 E14.21116
G1 X134.966 Y58.011 E14.24238
G1 X135.859 Y58.145 E14.27242
G1 X136.772 Y58.364 E14.30364
G1 X137.662 Y58.663 E14.33487
G1 X138.553 Y59.054 E14.36723
G1 X139.345 Y59.489 E14.39729
G1 X140.124 Y60.012 E14.4285
G1 X140.855 Y60.601 E14.45972
G1 X141.704 Y61.438 E14.49937
G1 X142.404 Y62.211 E14.53406
G1 X144.179 Y64.114 E14.62061
G1 X145.954 Y65.914 E14.70469
G1 X147.785 Y67.667 E14.789
G1 X149.67 Y69.375 E14.87361
G1 X151.578 Y71.006 E14.95709
G1 X153.532 Y72.584 E15.04063
G1 X155.58 Y74.142 E15.12622
G1 X157.605 Y75.596 E15.20913
G1 X159.727 Y77.03 E15.29431
G1 X161.818 Y78.358 E15.3767
G1 X164.018 Y79.67 E15.4619
G1 X166.234 Y80.907 E15.54631
G1 X168.448 Y82.063 E15.62938
G1 X170.821 Y83.218 E15.71716
G1 X172.215 Y83.865 E15.76827
G1 X173.048 Y84.298 E15.7995
G1 X173.839 Y84.804 E15.83073
G1 X174.554 Y85.354 E15.86073
G1 X175.271 Y86.014 E15.89315
G1 X175.878 Y86.682 E15.92317
G1 X176.468 Y87.457 E15.95556
G1 X176.948 Y88.222 E15.9856
G1 X177.391 Y89.089 E16.01798
G1 X177.741 Y89.961 E16.04923
G1 X178.013 Y90.859 E16.08044
G1 X178.198 Y91.743 E16.11048
G1 X178.312 Y92.702 E16.1426
G1 X178.338 Y93.249 E16.16082
G1 X178.407 Y96.527 E16.26987
G1 X178.531 Y99 E16.35222
G1 X178.732 Y101.563 E16.43773
G1 X178.997 Y104.055 E16.52108
G1 X179.334 Y106.546 E16.60469
G1 X179.746 Y109.052 E16.68916
G1 X180.234 Y111.573 E16.77456
G1 X180.601 Y113.265 E16.83215
G1 X180.759 Y114.192 E16.86342
G1 X180.835 Y115.182 E16.89645
G1 X180.85 Y115.83 E16.91801
G1 X180.849 Y118.944 E17.02158
G1 X180.838 Y119.663 E17.04549
G1 X180.782 Y120.6 E17.07671
G1 X180.65 Y121.493 E17.10674
G1 X180.422 Y122.441 E17.13917
G1 X180.122 Y123.329 E17.17034
G1 X179.76 Y124.157 E17.2004
G1 X179.31 Y124.981 E17.23163
G1 X178.768 Y125.79 E17.26401
G1 X178.178 Y126.52 E17.29523
G1 X177.551 Y127.17 E17.32527
G1 X176.777 Y127.839 E17.3593
G1 X174.569 Y129.569 E17.45259
G1 X172.537 Y131.259 E17.5405
G1 X172.136 Y131.603 E17.55807
G1 X171.425 Y132.16 E17.58811
G1 X170.639 Y132.672 E17.61931
G1 X169.778 Y133.129 E17.65173
G1 X168.946 Y133.48 E17.68177
G1 X168.053 Y133.768 E17.71297
G1 X167.138 Y133.976 E17.74418
G1 X166.18 Y134.105 E17.77633
G1 X165.584 Y134.142 E17.79619
G1 X164.945 Y134.157 E17.81745
G1 X65.306 Y134.157 E21.13146
G1 X64.607 Y134.147 E21.15471
G1 X63.654 Y134.09 E21.18647
G1 X62.76 Y133.958 E21.21652
G1 X61.812 Y133.73 E21.24895
G1 X60.956 Y133.442 E21.27899
G1 X60.065 Y133.052 E21.31134
G1 X59.273 Y132.618 E21.34138
G1 X58.491 Y132.096 E21.37265
G1 X57.733 Y131.485 E21.40503
G1 X57.083 Y130.858 E21.43507
G1 X56.445 Y130.123 E21.46744
G1 X55.896 Y129.362 E21.49865
G1 X55.433 Y128.586 E21.52871
G1 X55.025 Y127.742 E21.55989
G1 X54.681 Y126.831 E21.59227
G1 X54.43 Y125.926 E21.62351
G1 X54.259 Y124.998 E21.6549
G1 X54.163 Y123.84 E21.69354
G1 X54.15 Y123.224 E21.71404
G1 X54.151 Y120.035 E21.8201
G1 X54.167 Y118.891 E21.85816
G1 X54.167 Y116.273 E21.94523
G1 X54.152 Y115.436 E21.97307
G1 X54.157 Y113.143 E22.04934
G1 X54.151 Y111.981 E22.08799
G1 X54.163 Y111.26 E22.11197
G1 X54.221 Y110.32 E22.1433
G1 X54.396 Y109.225 E22.18018
G1 X54.614 Y108.206 E22.21484
G1 X54.752 Y107.602 E22.23544
G1 X55.255 Y105.103 E22.32023
G1 X55.686 Y102.594 E22.4049
G1 X56.04 Y100.123 E22.48792
G1 X56.326 Y97.603 E22.57228
G1 X56.547 Y95.043 E22.65774
G1 X56.648 Y93.264 E22.71701
G1 X56.688 Y92.708 E22.73555
G1 X56.797 Y91.776 E22.76676
G1 X56.979 Y90.892 E22.79677
G1 X57.26 Y89.959 E22.82918
G1 X57.61 Y89.088 E22.8604
G1 X58.018 Y88.283 E22.89042
G1 X58.534 Y87.456 E22.92284
G1 X59.1 Y86.708 E22.95404
G1 X59.705 Y86.038 E22.98407
G1 X60.419 Y85.376 E23.01645
G1 X61.162 Y84.803 E23.04766
G0 F6000 X60.946 Y84.466
G1 F1200 X61.732 Y83.963 E23.07869
G1 X62.31 Y83.65 E23.10056
G1 X64.899 Y82.346 E23.19697
G1 X67.1 Y81.154 E23.28022
G1 X69.298 Y79.884 E23.36466
G1 X71.415 Y78.578 E23.44739
G1 X73.539 Y77.184 E23.53189
G1 X75.598 Y75.746 E23.61542
G1 X77.593 Y74.268 E23.698
G1 X79.599 Y72.693 E23.78283
G1 X81.531 Y71.086 E23.86641
G1 X83.432 Y69.41 E23.9507
G1 X85.282 Y67.685 E24.03483
G1 X87.032 Y65.959 E24.11658
G1 X88.798 Y64.113 E24.20155
G1 X90.698 Y62.006 E24.29592
G1 X91.332 Y61.282 E24.32793
G1 X92.006 Y60.582 E24.36025
G1 X92.685 Y59.986 E24.39029
G1 X93.53 Y59.37 E24.42507
G1 X94.366 Y58.87 E24.45747
G1 X95.242 Y58.446 E24.48984
G1 X96.085 Y58.123 E24.51987
G1 X97.09 Y57.839 E24.5546
G1 X97.977 Y57.67 E24.58464
G1 X99.216 Y57.557 E24.62602
G1 X99.827 Y57.542 E24.64635
G1 X105.679 Y57.542 E24.84098
G1 X106.39 Y57.552 E24.86463
G1 X106.847 Y57.57 E24.87985
G1 X109.663 Y57.732 E24.97366
G1 X112.209 Y57.805 E25.05838
G1 X114.699 Y57.805 E25.14119
G1 X117.247 Y57.734 E25.22597
G1 X120.104 Y57.571 E25.32115
G1 X120.567 Y57.553 E25.33656
G1 X121.298 Y57.542 E25.36088
G1 X133.314 Y57.542 E25.76053
G1 X134.053 Y57.555 E25.78512
G1 X135.025 Y57.615 E25.81751
G1 X135.918 Y57.749 E25.84754
G1 X136.865 Y57.975 E25.87992
G1 X137.823 Y58.297 E25.91354
G1 X138.746 Y58.703 E25.94708
G1 X139.538 Y59.138 E25.97713
G1 X140.347 Y59.68 E26.00952
G1 X141.136 Y60.316 E26.04322
G1 X141.985 Y61.153 E26.08288
G1 X142.697 Y61.938 E26.11813
G1 X144.472 Y63.841 E26.20468
G1 X146.231 Y65.625 E26.28801
G1 X148.062 Y67.378 E26.37232
G1 X149.93 Y69.071 E26.45617
G1 X151.838 Y70.702 E26.53965
G1 X153.774 Y72.266 E26.62243
G1 X155.813 Y73.817 E26.70764
G1 X157.838 Y75.271 E26.79056
G1 X159.941 Y76.692 E26.87497
G1 X162.023 Y78.014 E26.957
G1 X164.223 Y79.326 E27.0422
G1 X166.419 Y80.552 E27.12585
G1 X168.623 Y81.703 E27.20855
G1 X170.996 Y82.858 E27.29633
G1 X172.399 Y83.51 E27.34778
G1 X173.264 Y83.961 E27.38023
G1 X174.055 Y84.467 E27.41146
G1 X174.798 Y85.037 E27.44261
G1 X175.567 Y85.745 E27.47737
G1 X176.174 Y86.413 E27.50739
G1 X176.807 Y87.244 E27.54214
G1 X177.287 Y88.009 E27.57217
G1 X177.762 Y88.94 E27.60694
G1 X178.124 Y89.845 E27.63936
G1 X178.405 Y90.777 E27.67173
G1 X178.59 Y91.661 E27.70177
G1 X178.712 Y92.683 E27.73601
G1 X178.738 Y93.241 E27.75458
G1 X178.807 Y96.519 E27.86364
G1 X178.93 Y98.969 E27.94523
G1 X179.13 Y101.521 E28.03037
G1 X179.395 Y104.013 E28.11372
G1 X179.729 Y106.481 E28.19655
G1 X180.139 Y108.976 E28.28065
G1 X180.625 Y111.488 E28.36575
G1 X180.995 Y113.198 E28.42394
G1 X181.158 Y114.161 E28.45642
G1 X181.235 Y115.173 E28.49018
G1 X181.25 Y115.83 E28.51204
G1 X181.249 Y118.95 E28.61581
G1 X181.237 Y119.687 E28.64033
G1 X181.178 Y120.658 E28.67268
G1 X181.039 Y121.587 E28.70392
G1 X180.811 Y122.535 E28.73635
G1 X180.489 Y123.489 E28.76984
G1 X180.127 Y124.317 E28.7999
G1 X179.661 Y125.173 E28.83231
G1 X179.1 Y126.013 E28.86591
G1 X178.466 Y126.798 E28.89947
G1 X177.813 Y127.473 E28.93071
G1 X177.024 Y128.154 E28.96537
G1 X174.825 Y129.877 E29.05829
G1 X172.793 Y131.567 E29.14619
G1 X172.383 Y131.918 E29.16415
G1 X171.672 Y132.475 E29.19419
G1 X170.827 Y133.025 E29.22772
G1 X169.933 Y133.498 E29.26136
G1 X169.069 Y133.861 E29.29253
G1 X168.176 Y134.149 E29.32374
G1 X167.227 Y134.366 E29.35612
G1 X166.205 Y134.504 E29.39042
G1 X165.593 Y134.542 E29.41081
G1 X164.954 Y134.557 E29.43207
G1 X65.3 Y134.557 E32.74658
G1 X64.583 Y134.546 E32.77043
G1 X63.596 Y134.486 E32.80331
G1 X62.666 Y134.347 E32.83459
G1 X61.718 Y134.119 E32.86702
G1 X60.828 Y133.821 E32.89824
G1 X59.873 Y133.403 E32.93291
G1 X59.051 Y132.951 E32.96411
G1 X58.269 Y132.429 E32.99538
G1 X57.455 Y131.773 E33.03015
G1 X56.805 Y131.146 E33.06019
G1 X56.121 Y130.357 E33.09492
G1 X55.552 Y129.567 E33.1273
G1 X55.089 Y128.791 E33.15736
G1 X54.665 Y127.916 E33.1897
G1 X54.296 Y126.938 E33.22446
G1 X54.037 Y125.998 E33.25689
G1 X53.86 Y125.031 E33.28959
G1 X53.764 Y123.873 E33.32824
G1 X53.75 Y123.224 E33.34983
G1 X53.751 Y120.029 E33.45609
G1 X53.767 Y118.885 E33.49415
G1 X53.767 Y116.273 E33.58102
G1 X53.752 Y115.435 E33.6089
G1 X53.757 Y113.142 E33.68517
G1 X53.751 Y111.974 E33.72401
G1 X53.764 Y111.235 E33.7486
G1 X53.826 Y110.257 E33.78119
G1 X54.005 Y109.141 E33.81878
G1 X54.224 Y108.117 E33.85361
G1 X54.362 Y107.513 E33.87422
G1 X54.863 Y105.024 E33.95866
G1 X55.292 Y102.526 E34.04296
G1 X55.644 Y100.066 E34.12562
G1 X55.927 Y97.569 E34.2092
G1 X56.149 Y95.009 E34.29466
G1 X56.249 Y93.235 E34.35376
G1 X56.291 Y92.662 E34.37287
G1 X56.405 Y91.695 E34.40526
G1 X56.587 Y90.811 E34.43527
G1 X56.889 Y89.81 E34.47005
G1 X57.253 Y88.907 E34.50243
G1 X57.661 Y88.102 E34.53245
G1 X58.215 Y87.215 E34.56723
G1 X58.803 Y86.44 E34.59959
G1 X59.408 Y85.77 E34.62961
G1 X60.175 Y85.059 E34.6644
G1 X60.946 Y84.466 E34.69675
G1 F2700 E29.69675
;MESH:Wall Mount A5 Rev 5.3MF
G0 F6000 X100.012 Y81.051
G0 X114.376 Y85.06
;TYPE:WALL-INNER
G1 F2700 E34.69675
G1 F1200 X112.182 Y85.059 E34.76972
G1 X111.768 Y84.894 E34.78455
G1 X111.65 Y84.739 E34.79103
G1 F1197 X111.582 Y84.511 E34.79896
G1 X111.582 Y84.059 E34.81403
G1 F1200 X111.182 Y84.059 E34.82733
G1 F1197 X111.182 Y84.511 E34.8424
G1 X111.114 Y84.739 E34.85034
G1 F1200 X110.996 Y84.894 E34.85682
G1 X110.67 Y85.059 E34.86897
G1 X109.268 Y85.059 E34.9156
G1 X108.748 Y84.76 E34.93555
G1 X106.988 Y81.715 E35.05253
G1 X105.722 Y82.446 E35.10115
G1 X105.374 Y82.486 E35.1128
G1 X105.234 Y82.443 E35.11767
G1 X105.015 Y82.294 E35.12648
G1 X102.903 Y78.637 E35.26694
G1 X102.879 Y78.381 E35.27549
G1 X102.968 Y78.114 E35.28485
G1 X103.159 Y77.923 E35.29384
G1 X104.388 Y77.212 E35.34106
G1 X102.574 Y74.071 E35.4617
G1 X102.551 Y73.815 E35.47025
G1 X102.63 Y73.566 E35.47894
G1 X103.29 Y72.428 E35.5227
G1 X103.408 Y72.282 E35.52894
