;FLAVOR:Marlin
;TIME:660
;Filament used: 0.352828m
;Layer height: 0.2
;MINX:80.394
;MINY:106.048
;MINZ:0.2
;MAXX:143.943
;MAXY:143.048
;MAXZ:5
;Generated with Cura_SteamEngine 5.3.1
M140 S50
M105
M190 S50
M104 S200
M105
M109 S200
M82 ;absolute extrusion mode
; Ender 3 Custom Start G-code
G92 E0 ; Reset Extruder
G28 ; Home all axes
G1 Z2.0 F3000 ; Move Z Axis up little to prevent scratching of Heat Bed
G1 X0.1 Y20 Z0.3 F5000.0 ; Move to start position
G1 X0.1 Y200.0 Z0.3 F1500.0 E15 ; Draw the first line
G1 X0.4 Y200.0 Z0.3 F5000.0 ; Move to side a little
G1 X0.4 Y20 Z0.3 F1500.0 E30 ; Draw the second line
G92 E0 ; Reset Extruder
G1 Z2.0 F3000 ; Move Z Axis up little to prevent scratching of Heat Bed
G1 X5 Y20 Z0.3 F5000.0 ; Move over to prevent blob squish
G92 E0
G92 E0
G1 F2700 E-5
;LAYER_COUNT:25
;LAYER:0
M107
G0 F6000 X85.053 Y109.075 Z0.2
;TYPE:SKIRT
G1 F2700 E0
G1 F1200 X85.784 Y108.545 E0.03003
G1 X86.558 Y108.081 E0.06005
G1 X87.371 Y107.688 E0.09008
G1 X88.216 Y107.368 E0.12013
G1 X89.086 Y107.124 E0.15019
G1 X89.973 Y106.958 E0.1802
G1 X91.117 Y106.861 E0.21839
G1 X91.724 Y106.848 E0.23858
G1 X105.687 Y106.848 E0.70299
G1 X106.534 Y106.859 E0.73116
G1 X107.436 Y106.912 E0.76122
G1 X108.53 Y107.085 E0.79806
G1 X109.227 Y107.235 E0.82177
G1 X111.826 Y107.755 E0.90992
G1 X114.314 Y108.181 E0.99388
G1 X116.805 Y108.535 E1.07756
G1 X119.328 Y108.822 E1.16202
G1 X121.881 Y109.038 E1.24724
G1 X124.378 Y109.18 E1.33042
G1 X128.325 Y109.263 E1.46173
G1 X132.382 Y109.264 E1.59666
G1 X133.08 Y109.274 E1.61988
G1 X133.982 Y109.327 E1.64993
G1 X134.875 Y109.459 E1.67996
G1 X135.753 Y109.67 E1.70999
G1 X136.609 Y109.958 E1.74003
G1 X137.436 Y110.32 E1.77006
G1 X138.228 Y110.755 E1.80011
G1 X138.979 Y111.257 E1.83016
G1 X139.682 Y111.824 E1.8602
G1 X140.332 Y112.451 E1.89023
G1 X140.924 Y113.133 E1.92027
G1 X141.454 Y113.864 E1.9503
G1 X141.916 Y114.64 E1.98034
G1 X142.309 Y115.453 E2.01037
G1 X142.627 Y116.298 E2.0404
G1 X142.87 Y117.168 E2.07045
G1 X143.035 Y118.056 E2.10049
G1 X143.13 Y119.186 E2.1382
G1 X143.143 Y119.793 E2.1584
G1 X143.142 Y128.053 E2.43313
G1 X143.133 Y128.78 E2.45731
G1 X143.082 Y129.682 E2.48736
G1 X142.951 Y130.576 E2.51741
G1 X142.742 Y131.454 E2.54743
G1 X142.456 Y132.311 E2.57748
G1 X142.095 Y133.139 E2.60752
G1 X141.663 Y133.931 E2.63752
G1 X141.162 Y134.683 E2.66758
G1 X140.596 Y135.387 E2.69762
G1 X139.971 Y136.038 E2.72764
G1 X139.29 Y136.632 E2.75769
G1 X138.559 Y137.163 E2.78775
G1 X137.785 Y137.627 E2.81776
G1 X136.972 Y138.021 E2.84781
G1 X136.128 Y138.341 E2.87783
G1 X135.258 Y138.586 E2.90789
G1 X134.371 Y138.752 E2.93791
G1 X133.22 Y138.85 E2.97633
G1 X129.626 Y138.9 E3.09588
G1 X127.061 Y139.009 E3.18126
G1 X124.554 Y139.187 E3.26486
G1 X122.013 Y139.438 E3.34978
G1 X119.505 Y139.759 E3.43388
G1 X117 Y140.153 E3.51822
G1 X114.513 Y140.615 E3.60235
G1 X112.002 Y141.156 E3.68779
G1 X108.933 Y141.915 E3.79294
G1 X108.05 Y142.102 E3.82296
G1 X107.153 Y142.21 E3.85301
G1 X106.671 Y142.235 E3.86906
G1 X106.064 Y142.248 E3.88925
G1 X91.969 Y142.247 E4.35806
G1 X91.271 Y142.238 E4.38127
G1 X90.37 Y142.187 E4.41129
G1 X89.476 Y142.055 E4.44134
G1 X88.598 Y141.846 E4.47136
G1 X87.741 Y141.559 E4.50142
G1 X86.914 Y141.198 E4.53144
G1 X86.121 Y140.765 E4.56149
G1 X85.37 Y140.264 E4.59151
G1 X84.666 Y139.698 E4.62156
G1 X84.015 Y139.072 E4.6516
G1 X83.422 Y138.391 E4.68163
G1 X82.892 Y137.66 E4.71166
G1 X82.428 Y136.885 E4.7417
G1 X82.034 Y136.072 E4.77175
G1 X81.714 Y135.228 E4.80177
G1 X81.47 Y134.358 E4.83183
G1 X81.304 Y133.47 E4.86187
G1 X81.207 Y132.315 E4.90042
G1 X81.194 Y131.706 E4.92068
G1 X81.195 Y117.613 E5.38942
G1 X81.204 Y116.924 E5.41234
G1 X81.256 Y116.022 E5.44239
G1 X81.387 Y115.129 E5.47241
G1 X81.597 Y114.25 E5.50247
G1 X81.883 Y113.394 E5.53248
G1 X82.245 Y112.566 E5.56254
G1 X82.678 Y111.774 E5.59256
G1 X83.179 Y111.023 E5.62259
G1 X83.745 Y110.319 E5.65263
G1 X84.371 Y109.668 E5.68267
G1 X85.053 Y109.075 E5.71273
G0 F6000 X84.818 Y108.751
G1 F1200 X85.549 Y108.221 E5.74276
G1 X86.352 Y107.738 E5.77393
G1 X87.229 Y107.314 E5.80633
G1 X88.074 Y106.994 E5.83638
G1 X89.012 Y106.731 E5.86878
G1 X89.939 Y106.559 E5.90014
G1 X91.083 Y106.462 E5.93833
G1 X91.715 Y106.448 E5.95935
G1 X105.692 Y106.448 E6.42423
G1 X106.557 Y106.46 E6.453
G1 X107.498 Y106.517 E6.48436
G1 X108.614 Y106.694 E6.52194
G1 X109.311 Y106.844 E6.54565
G1 X111.894 Y107.361 E6.63327
G1 X114.37 Y107.785 E6.71682
G1 X116.861 Y108.139 E6.8005
G1 X119.362 Y108.423 E6.88422
G1 X121.915 Y108.64 E6.96944
G1 X124.386 Y108.78 E7.05176
G1 X128.333 Y108.863 E7.18306
G1 X132.388 Y108.864 E7.31793
G1 X133.103 Y108.875 E7.34172
G1 X134.04 Y108.931 E7.37294
G1 X134.933 Y109.063 E7.40296
G1 X135.881 Y109.291 E7.43539
G1 X136.737 Y109.579 E7.46543
G1 X137.629 Y109.969 E7.49781
G1 X138.421 Y110.404 E7.52786
G1 X139.201 Y110.924 E7.55904
G1 X139.96 Y111.536 E7.59147
G1 X140.61 Y112.163 E7.62151
G1 X141.248 Y112.898 E7.65388
G1 X141.798 Y113.659 E7.68511
G1 X142.26 Y114.435 E7.71515
G1 X142.683 Y115.312 E7.74753
G1 X143.012 Y116.19 E7.77872
G1 X143.263 Y117.095 E7.80995
G1 X143.434 Y118.022 E7.84131
G1 X143.529 Y119.152 E7.87902
G1 X143.543 Y119.793 E7.90035
G1 X143.542 Y128.058 E8.17524
G1 X143.532 Y128.803 E8.20002
G1 X143.478 Y129.74 E8.23124
G1 X143.347 Y130.634 E8.26129
G1 X143.131 Y131.547 E8.2925
G1 X142.823 Y132.471 E8.32489
G1 X142.462 Y133.299 E8.35494
G1 X141.996 Y134.153 E8.38729
G1 X141.474 Y134.934 E8.41854
G1 X140.908 Y135.638 E8.44858
G1 X140.26 Y136.315 E8.47975
G1 X139.525 Y136.956 E8.51219
G1 X138.794 Y137.487 E8.54224
G1 X137.991 Y137.97 E8.57341
G1 X137.114 Y138.395 E8.60582
G1 X136.27 Y138.715 E8.63584
G1 X135.332 Y138.979 E8.66825
G1 X134.405 Y139.151 E8.69961
G1 X133.254 Y139.249 E8.73803
G1 X129.643 Y139.3 E8.85814
G1 X127.078 Y139.409 E8.94353
G1 X124.585 Y139.586 E9.02666
G1 X122.064 Y139.835 E9.11092
G1 X119.556 Y140.156 E9.19501
G1 X117.062 Y140.548 E9.27898
G1 X114.597 Y141.006 E9.36237
G1 X112.086 Y141.547 E9.44781
G1 X109.016 Y142.306 E9.55299
G1 X108.098 Y142.499 E9.58419
G1 X107.201 Y142.607 E9.61424
G1 X106.68 Y142.635 E9.63159
G1 X106.073 Y142.648 E9.65179
G1 X91.964 Y142.647 E10.12105
G1 X91.248 Y142.637 E10.14487
G1 X90.312 Y142.583 E10.17605
G1 X89.418 Y142.451 E10.20611
G1 X88.505 Y142.235 E10.23731
G1 X87.581 Y141.926 E10.26972
G1 X86.754 Y141.565 E10.29973
G1 X85.899 Y141.098 E10.33213
G1 X85.119 Y140.576 E10.36335
G1 X84.415 Y140.01 E10.3934
G1 X83.713 Y139.335 E10.42579
G1 X83.12 Y138.654 E10.45582
G1 X82.568 Y137.895 E10.48704
G1 X82.068 Y137.059 E10.51943
G1 X81.66 Y136.214 E10.55064
G1 X81.34 Y135.37 E10.58067
G1 X81.077 Y134.432 E10.61307
G1 X80.905 Y133.503 E10.64449
G1 X80.807 Y132.324 E10.68384
G1 X80.794 Y131.706 E10.7044
G1 X80.795 Y117.608 E11.1733
G1 X80.805 Y116.901 E11.19682
G1 X80.86 Y115.964 E11.22804
G1 X80.991 Y115.071 E11.25805
G1 X81.208 Y114.157 E11.2893
G1 X81.516 Y113.234 E11.32166
G1 X81.878 Y112.406 E11.35172
G1 X82.345 Y111.552 E11.38409
G1 X82.867 Y110.772 E11.41531
G1 X83.433 Y110.068 E11.44535
G1 X84.109 Y109.366 E11.47777
G1 X84.818 Y108.751 E11.50898
G0 F6000 X84.583 Y108.427
G1 F1200 X85.314 Y107.897 E11.53902
G1 X86.146 Y107.395 E11.57133
G1 X87.087 Y106.94 E11.6061
G1 X87.932 Y106.62 E11.63615
G1 X88.904 Y106.346 E11.66974
G1 X89.905 Y106.16 E11.7036
G1 X91.049 Y106.063 E11.74179
G1 X91.706 Y106.048 E11.76365
G1 X105.698 Y106.048 E12.22902
G1 X106.581 Y106.061 E12.2584
G1 X107.561 Y106.122 E12.29105
G1 X108.698 Y106.303 E12.32935
G1 X109.39 Y106.452 E12.35289
G1 X111.969 Y106.968 E12.44037
G1 X114.426 Y107.389 E12.52328
G1 X116.917 Y107.743 E12.60696
G1 X119.396 Y108.024 E12.68994
G1 X121.949 Y108.242 E12.77516
G1 X124.394 Y108.38 E12.85661
G1 X128.341 Y108.463 E12.98792
G1 X132.394 Y108.464 E13.12273
G1 X133.127 Y108.476 E13.14711
G1 X134.098 Y108.535 E13.17946
G1 X135.027 Y108.674 E13.21071
G1 X135.975 Y108.902 E13.24314
G1 X136.897 Y109.212 E13.27549
G1 X137.822 Y109.618 E13.30909
G1 X138.614 Y110.053 E13.33914
G1 X139.423 Y110.591 E13.37145
G1 X140.238 Y111.248 E13.40627
G1 X140.888 Y111.875 E13.43631
G1 X141.55 Y112.636 E13.46986
G1 X142.142 Y113.454 E13.50344
G1 X142.604 Y114.23 E13.53348
G1 X143.058 Y115.172 E13.56826
G1 X143.387 Y116.05 E13.59945
G1 X143.656 Y117.022 E13.63299
G1 X143.833 Y117.988 E13.66565
G1 X143.928 Y119.118 E13.70337
G1 X143.943 Y119.793 E13.72583
G1 X143.942 Y128.063 E14.00089
G1 X143.931 Y128.826 E14.02627
G1 X143.874 Y129.798 E14.05865
G1 X143.743 Y130.692 E14.0887
G1 X143.52 Y131.639 E14.12106
G1 X143.19 Y132.631 E14.15584
G1 X142.829 Y133.459 E14.18588
G1 X142.329 Y134.375 E14.22059
G1 X141.786 Y135.185 E14.25302
G1 X141.22 Y135.889 E14.28307
G1 X140.549 Y136.592 E14.31539
G1 X139.76 Y137.28 E14.35021
G1 X139.029 Y137.811 E14.38026
G1 X138.197 Y138.313 E14.41258
G1 X137.256 Y138.769 E14.44736
G1 X136.412 Y139.089 E14.47738
G1 X135.44 Y139.364 E14.51098
G1 X134.439 Y139.55 E14.54484
G1 X133.288 Y139.648 E14.58326
G1 X129.66 Y139.7 E14.70394
G1 X127.095 Y139.809 E14.78933
G1 X124.616 Y139.985 E14.87199
G1 X122.115 Y140.232 E14.95558
G1 X119.607 Y140.553 E15.03967
G1 X117.124 Y140.943 E15.12327
G1 X114.681 Y141.397 E15.20592
G1 X112.17 Y141.938 E15.29135
G1 X109.098 Y142.697 E15.3966
G1 X108.146 Y142.896 E15.42895
G1 X107.249 Y143.004 E15.45899
G1 X106.689 Y143.035 E15.47765
G1 X106.073 Y143.048 E15.49814
G1 X91.958 Y143.047 E15.96761
G1 X91.225 Y143.036 E15.99199
G1 X90.254 Y142.979 E16.02434
G1 X89.36 Y142.847 E16.0544
G1 X88.378 Y142.614 E16.08797
G1 X87.421 Y142.293 E16.12154
G1 X86.594 Y141.932 E16.15155
G1 X85.707 Y141.449 E16.18514
G1 X84.868 Y140.888 E16.21871
G1 X84.164 Y140.322 E16.24876
G1 X83.411 Y139.598 E16.2835
G1 X82.818 Y138.917 E16.31354
G1 X82.225 Y138.1 E16.34711
G1 X81.708 Y137.233 E16.38069
G1 X81.286 Y136.356 E16.41306
G1 X80.966 Y135.512 E16.44308
G1 X80.692 Y134.54 E16.47667
G1 X80.506 Y133.536 E16.51063
G1 X80.408 Y132.357 E16.54998
G1 X80.394 Y131.706 E16.57163
G1 X80.395 Y117.602 E17.04074
G1 X80.406 Y116.878 E17.06482
G1 X80.464 Y115.906 E17.09721
G1 X80.595 Y115.013 E17.12722
G1 X80.829 Y114.03 E17.16083
G1 X81.149 Y113.074 E17.19436
G1 X81.511 Y112.246 E17.22442
G1 X81.994 Y111.36 E17.25798
G1 X82.555 Y110.521 E17.29155
G1 X83.121 Y109.817 E17.3216
G1 X83.847 Y109.064 E17.35639
G1 X84.583 Y108.427 E17.38876
G1 F2700 E12.38876
;MESH:Segment_V1.3MF
G0 F6000 X91.808 Y116.383
G0 X105.794 Y131.448
;TYPE:WALL-INNER
G1 F2700 E17.38876
G1 F1200 X105.794 Y117.648 E17.84775
G1 X91.994 Y117.648 E18.30674
G1 X91.994 Y131.448 E18.76573
G1 X105.794 Y131.448 E19.22472
G0 F6000 X106.194 Y131.848
;TYPE:WALL-OUTER
G1 F1200 X106.194 Y117.248 E19.71032
G1 X91.594 Y117.248 E20.19592
G1 X91.594 Y131.848 E20.68151
G1 X106.194 Y131.848 E21.16711
G0 F6000 X105.924 Y131.578
G0 X105.694 Y131.088
G0 X105.434 Y131.088
;TYPE:SKIN
G1 F1200 X92.354 Y131.088 E21.60215
G1 X92.354 Y118.008 E22.0372
G1 X105.434 Y118.008 E22.47224
G1 X105.434 Y131.088 E22.90728
G0 F6000 X105.694 Y131.088
G0 X105.694 Y118.81
G0 X105.233 Y118.81
G1 F1200 X104.631 Y118.207 E22.93562
G0 F6000 X104.065 Y118.207
G1 F1200 X105.233 Y119.375 E22.99056
G0 F6000 X105.233 Y119.941
G1 F1200 X103.499 Y118.207 E23.07212
G0 F6000 X102.934 Y118.207
G1 F1200 X105.233 Y120.507 E23.18028
G0 F6000 X105.233 Y121.072
G1 F1200 X102.368 Y118.207 E23.31504
G0 F6000 X101.802 Y118.207
G1 F1200 X105.233 Y121.638 E23.47643
G0 F6000 X105.233 Y122.204
G1 F1200 X101.237 Y118.207 E23.66441
G0 F6000 X100.671 Y118.207
G1 F1200 X105.233 Y122.77 E23.87902
G0 F6000 X105.233 Y123.335
G1 F1200 X100.105 Y118.207 E24.12022
G0 F6000 X99.54 Y118.207
G1 F1200 X105.233 Y123.901 E24.38803
G0 F6000 X105.233 Y124.467
G1 F1200 X98.974 Y118.207 E24.68246
G0 F6000 X98.408 Y118.207
G1 F1200 X105.233 Y125.032 E25.00348
G0 F6000 X105.233 Y125.598
G1 F1200 X97.843 Y118.207 E25.35111
G0 F6000 X97.277 Y118.207
G1 F1200 X105.233 Y126.164 E25.72536
G0 F6000 X105.233 Y126.729
G1 F1200 X96.711 Y118.207 E26.12621
G0 F6000 X96.146 Y118.207
G1 F1200 X105.233 Y127.295 E26.55366
G0 F6000 X105.233 Y127.861
G1 F1200 X95.58 Y118.207 E27.00773
G0 F6000 X95.014 Y118.207
G1 F1200 X105.233 Y128.426 E27.4884
G0 F6000 X105.233 Y128.992
G1 F1200 X94.448 Y118.207 E27.99569
G0 F6000 X93.883 Y118.207
G1 F1200 X105.233 Y129.558 E28.52958
G0 F6000 X105.233 Y130.123
G1 F1200 X93.317 Y118.207 E29.09007
G0 F6000 X92.751 Y118.207
G1 F1200 X105.233 Y130.689 E29.67719
G0 F6000 X104.866 Y130.887
G1 F1200 X92.553 Y118.575 E30.25633
G0 F6000 X92.553 Y119.141
G1 F1200 X104.3 Y130.887 E30.80885
G0 F6000 X103.734 Y130.887
G1 F1200 X92.553 Y119.706 E31.33477
G0 F6000 X92.553 Y120.272
G1 F1200 X103.169 Y130.887 E31.83409
G0 F6000 X102.603 Y130.887
G1 F1200 X92.553 Y120.838 E32.30679
G0 F6000 X92.553 Y121.403
G1 F1200 X102.037 Y130.887 E32.75289
G0 F6000 X101.471 Y130.887
G1 F1200 X92.553 Y121.969 E33.17236
G0 F6000 X92.553 Y122.535
G1 F1200 X100.906 Y130.887 E33.56524
G0 F6000 X100.34 Y130.887
G1 F1200 X92.553 Y123.1 E33.93152
G0 F6000 X92.553 Y123.666
G1 F1200 X99.774 Y130.887 E34.27117
G0 F6000 X99.209 Y130.887
G1 F1200 X92.553 Y124.232 E34.58422
G0 F6000 X92.553 Y124.797
G1 F1200 X98.643 Y130.887 E34.87068
G0 F6000 X98.077 Y130.887
G1 F1200 X92.553 Y125.363 E35.13051
G0 F6000 X92.553 Y125.929
G1 F1200 X97.512 Y130.887 E35.36374
G0 F6000 X96.946 Y130.887
G1 F1200 X92.553 Y126.495 E35.57035
G0 F6000 X92.553 Y127.06
G1 F1200 X96.38 Y130.887 E35.75036
G0 F6000 X95.815 Y130.887
G1 F1200 X92.553 Y127.626 E35.90377
G0 F6000 X92.553 Y128.192
G1 F1200 X95.249 Y130.887 E36.03056
G0 F6000 X94.683 Y130.887
G1 F1200 X92.553 Y128.757 E36.13075
G0 F6000 X92.553 Y129.323
G1 F1200 X94.118 Y130.887 E36.20434
G0 F6000 X93.552 Y130.887
G1 F1200 X92.553 Y129.889 E36.25131
G0 F6000 X92.553 Y130.454
G1 F1200 X92.986 Y130.887 E36.27167
G1 F2700 E31.27167
;MESH:Retainer_V1.3MF
G0 F6000 X92.986 Y131.348
G0 X105.622 Y131.276
G0 X105.974 Y127.793
G0 X107.059 Y127.793
G0 X117.278 Y127.793
G0 X118.544 Y128.062
;TYPE:WALL-INNER
G1 F2700 E36.27167
G1 F1200 X132.343 Y128.063 E36.73063
G1 X132.343 Y120.063 E36.99671
G1 X118.544 Y120.064 E37.45567
G1 X118.544 Y128.062 E37.72168
G1 F2700 E32.72168
G0 F6000 X118.644 Y127.793
G0 X123.749 Y127.882
G0 X123.949 Y127.187
G0 X123.751 Y126.951
G1 F2700 E37.72168
G1 F1200 X123.551 Y126.743 E37.73128
G1 X122.175 Y124.364 E37.82269
G1 X122.103 Y124.167 E37.82966
G1 X122.104 Y123.956 E37.83668
G1 X122.175 Y123.762 E37.84355
G1 X123.551 Y121.383 E37.93496
G1 X123.751 Y121.175 E37.94456
G1 X123.988 Y121.084 E37.953
G1 X126.815 Y121.084 E38.04703
G1 X127.135 Y121.175 E38.05809
G1 X127.335 Y121.383 E38.06769
G1 X128.711 Y123.762 E38.1591
G1 X128.783 Y123.959 E38.16608
G1 X128.782 Y124.17 E38.17309
G1 X128.711 Y124.364 E38.17996
G1 X127.335 Y126.743 E38.27137
G1 X127.135 Y126.951 E38.28097
G1 X126.898 Y127.042 E38.28941
G1 X124.071 Y127.042 E38.38344
G1 X123.751 Y126.951 E38.39451
G0 F6000 X123.932 Y126.603
;TYPE:WALL-OUTER
G1 F1200 X122.494 Y124.117 E38.49003
G1 X122.521 Y123.962 E38.49526
G1 X123.897 Y121.583 E38.58667
G1 X124.036 Y121.486 E38.59231
G1 X126.815 Y121.484 E38.68473
G1 X126.954 Y121.523 E38.68954
G1 X128.392 Y124.009 E38.78506
G1 X128.365 Y124.164 E38.79029
G1 X126.989 Y126.543 E38.8817
G1 X126.85 Y126.64 E38.88734
G1 X124.071 Y126.642 E38.97977
G1 X123.932 Y126.603 E38.98457
G1 F2700 E33.98457
G0 F6000 X123.672 Y126.753
G0 X122.719 Y125.703
G0 X122.717 Y127.882
G0 X118.144 Y128.462
G1 F2700 E38.98457
G1 F1200 X132.743 Y128.463 E39.47013
G1 X132.743 Y119.663 E39.76282
G1 X118.144 Y119.664 E40.24839
G1 X118.144 Y128.462 E40.54101
G0 F6000 X118.413 Y128.193
G0 X123.561 Y127.962
G0 X123.563 Y127.267
;TYPE:SKIN
G1 F1269.8 X124.025 Y127.374 E40.55591
G1 F1352.1 X126.948 Y127.377 E40.6422
G1 F1276.6 X127.329 Y127.262 E40.65464
G1 F1203 X127.636 Y126.944 E40.6693
G1 F1200 X129.021 Y124.548 E40.76135
G1 X129.137 Y124.231 E40.77258
G1 X129.14 Y123.897 E40.78369
G1 X129.02 Y123.575 E40.79512
G1 X127.651 Y121.207 E40.88609
G1 X127.323 Y120.859 E40.902
G1 F1269.8 X126.861 Y120.752 E40.9169
G1 F1337 X123.904 Y120.755 E41.00517
G1 F1263.2 X123.556 Y120.865 E41.0167
G1 F1203 X123.25 Y121.182 E41.03132
