;FLAVOR:Marlin
;TIME:5672
;Filament used: 3.78669m
;Layer height: 0.2
;MINX:56.25
;MINY:86.667
;MINZ:0.2
;MAXX:178.75
;MAXY:138.872
;MAXZ:15.4
;Generated with Cura_SteamEngine 5.3.1
M140 S50
M105
M190 S50
M104 S200
M105
M109 S200
M82 ;absolute extrusion mode
; Ender 3 Custom Start G-code
G92 E0 ; Reset Extruder
G28 ; Home all axes
G1 Z2.0 F3000 ; Move Z Axis up little to prevent scratching of Heat Bed
G1 X0.1 Y20 Z0.3 F5000.0 ; Move to start position
G1 X0.1 Y200.0 Z0.3 F1500.0 E15 ; Draw the first line
G1 X0.4 Y200.0 Z0.3 F5000.0 ; Move to side a little
G1 X0.4 Y20 Z0.3 F1500.0 E30 ; Draw the second line
G92 E0 ; Reset Extruder
G1 Z2.0 F3000 ; Move Z Axis up little to prevent scratching of Heat Bed
G1 X5 Y20 Z0.3 F5000.0 ; Move over to prevent blob squish
G92 E0
G92 E0
G1 F2700 E-5
;LAYER_COUNT:78
;LAYER:0
M107
G0 F6000 X61.644 Y89.161 Z0.2
;TYPE:SKIRT
G1 F2700 E0
G1 F1200 X62.419 Y88.698 E0.03003
G1 X63.232 Y88.305 E0.06006
G1 X64.077 Y87.985 E0.09011
G1 X64.946 Y87.742 E0.12012
G1 X65.834 Y87.576 E0.15017
G1 X66.973 Y87.48 E0.18819
G1 X67.58 Y87.467 E0.20838
G1 X167.189 Y87.468 E3.52139
G1 X167.887 Y87.478 E3.54461
G1 X168.789 Y87.531 E3.57466
G1 X169.682 Y87.663 E3.60469
G1 X170.56 Y87.874 E3.63472
G1 X171.416 Y88.162 E3.66476
G1 X172.243 Y88.524 E3.69478
G1 X173.035 Y88.959 E3.72484
G1 X173.786 Y89.461 E3.75488
G1 X174.489 Y90.028 E3.78492
G1 X175.139 Y90.655 E3.81496
G1 X175.731 Y91.337 E3.845
G1 X176.261 Y92.068 E3.87503
G1 X176.723 Y92.844 E3.90507
G1 X177.116 Y93.657 E3.9351
G1 X177.434 Y94.502 E3.96513
G1 X177.677 Y95.372 E3.99517
G1 X177.842 Y96.26 E4.02521
G1 X177.937 Y97.39 E4.06293
G1 X177.95 Y97.997 E4.08312
G1 X177.949 Y105.983 E4.34874
G1 X177.936 Y106.859 E4.37788
G1 X177.848 Y109.861 E4.47777
G1 X177.848 Y112.375 E4.56138
G1 X177.946 Y115.794 E4.67515
G1 X177.949 Y127.262 E5.05657
G1 X177.94 Y127.989 E5.08076
G1 X177.889 Y128.891 E5.11081
G1 X177.758 Y129.785 E5.14086
G1 X177.549 Y130.663 E5.17088
G1 X177.263 Y131.52 E5.20092
G1 X176.902 Y132.348 E5.23097
G1 X176.47 Y133.14 E5.26097
G1 X175.969 Y133.892 E5.29103
G1 X175.403 Y134.596 E5.32107
G1 X174.778 Y135.247 E5.35109
G1 X174.097 Y135.841 E5.38114
G1 X173.366 Y136.372 E5.41119
G1 X172.592 Y136.836 E5.44121
G1 X171.779 Y137.23 E5.47126
G1 X170.935 Y137.55 E5.50128
G1 X170.065 Y137.795 E5.53134
G1 X169.178 Y137.961 E5.56135
G1 X168.042 Y138.059 E5.59928
G1 X167.436 Y138.072 E5.61944
G1 X67.812 Y138.072 E8.93295
G1 X67.113 Y138.062 E8.9562
G1 X66.212 Y138.009 E8.98622
G1 X65.318 Y137.877 E9.01627
G1 X64.44 Y137.666 E9.04631
G1 X63.584 Y137.378 E9.07635
G1 X62.757 Y137.016 E9.10637
G1 X61.965 Y136.582 E9.13641
G1 X61.214 Y136.079 E9.16647
G1 X60.511 Y135.512 E9.19651
G1 X59.861 Y134.885 E9.22655
G1 X59.269 Y134.203 E9.25659
G1 X58.74 Y133.472 E9.2866
G1 X58.277 Y132.696 E9.31665
G1 X57.885 Y131.883 E9.34667
G1 X57.566 Y131.038 E9.37672
G1 X57.323 Y130.168 E9.40676
G1 X57.158 Y129.28 E9.4368
G1 X57.063 Y128.146 E9.47465
G1 X57.05 Y127.539 E9.49484
G1 X57.051 Y116.321 E9.86795
G1 X57.064 Y115.459 E9.89663
G1 X57.152 Y112.461 E9.99638
G1 X57.152 Y109.99 E10.07857
G1 X57.093 Y108.338 E10.13355
G1 X57.096 Y107.974 E10.14566
G1 X57.05 Y106.237 E10.20345
G1 X57.051 Y98.203 E10.47066
G1 X57.06 Y97.538 E10.49278
G1 X57.112 Y96.636 E10.52283
G1 X57.244 Y95.743 E10.55286
G1 X57.454 Y94.865 E10.58288
G1 X57.741 Y94.008 E10.61294
G1 X58.103 Y93.181 E10.64297
G1 X58.536 Y92.389 E10.67299
G1 X59.038 Y91.638 E10.70304
G1 X59.605 Y90.934 E10.7331
G1 X60.231 Y90.284 E10.76312
G1 X60.912 Y89.691 E10.79315
G1 X61.644 Y89.161 E10.82321
G0 F6000 X61.409 Y88.837
G1 F1200 X60.649 Y89.389 E10.85445
G1 X59.968 Y89.982 E10.88448
G1 X59.293 Y90.683 E10.91685
G1 X58.726 Y91.387 E10.94692
G1 X58.203 Y92.167 E10.97815
G1 X57.752 Y92.989 E11.00934
G1 X57.362 Y93.881 E11.04172
G1 X57.065 Y94.772 E11.07295
G1 X56.848 Y95.685 E11.10417
G1 X56.716 Y96.578 E11.13419
G1 X56.661 Y97.515 E11.16541
G1 X56.651 Y98.198 E11.18813
G1 X56.65 Y106.237 E11.45551
G1 X56.696 Y107.971 E11.5132
G1 X56.693 Y108.335 E11.52531
G1 X56.752 Y110.004 E11.58085
G1 X56.752 Y112.449 E11.66217
G1 X56.664 Y115.447 E11.76193
G1 X56.651 Y116.315 E11.7908
G1 X56.65 Y127.539 E12.16411
G1 X56.663 Y128.155 E12.18461
G1 X56.759 Y129.313 E12.22325
G1 X56.93 Y130.241 E12.25464
G1 X57.181 Y131.146 E12.28588
G1 X57.525 Y132.057 E12.31826
G1 X57.933 Y132.901 E12.34944
G1 X58.396 Y133.677 E12.3795
G1 X58.945 Y134.438 E12.41071
G1 X59.583 Y135.173 E12.44308
G1 X60.233 Y135.8 E12.47312
G1 X60.991 Y136.411 E12.5055
G1 X61.773 Y136.933 E12.53677
G1 X62.565 Y137.367 E12.56681
G1 X63.456 Y137.757 E12.59916
G1 X64.312 Y138.045 E12.6292
G1 X65.26 Y138.273 E12.66163
G1 X66.154 Y138.405 E12.69168
G1 X67.107 Y138.462 E12.72344
G1 X67.806 Y138.472 E12.74669
G1 X167.445 Y138.472 E16.0607
G1 X168.076 Y138.458 E16.08169
G1 X169.212 Y138.36 E16.11961
G1 X170.139 Y138.188 E16.15097
G1 X171.077 Y137.924 E16.18338
G1 X171.921 Y137.604 E16.2134
G1 X172.798 Y137.179 E16.24582
G1 X173.601 Y136.696 E16.27698
G1 X174.332 Y136.165 E16.30703
G1 X175.067 Y135.524 E16.33947
G1 X175.715 Y134.847 E16.37064
G1 X176.281 Y134.143 E16.40068
G1 X176.803 Y133.362 E16.43193
G1 X177.269 Y132.508 E16.46429
G1 X177.63 Y131.68 E16.49433
G1 X177.938 Y130.756 E16.52672
G1 X178.154 Y129.843 E16.55793
G1 X178.285 Y128.949 E16.58798
G1 X178.339 Y128.012 E16.6192
G1 X178.349 Y127.267 E16.64398
G1 X178.346 Y115.794 E17.02557
G1 X178.248 Y112.375 E17.13933
G1 X178.248 Y109.873 E17.22255
G1 X178.336 Y106.871 E17.32244
G1 X178.349 Y105.989 E17.35178
G1 X178.35 Y97.997 E17.61759
G1 X178.336 Y97.356 E17.63892
G1 X178.241 Y96.226 E17.67664
G1 X178.07 Y95.299 E17.70799
G1 X177.819 Y94.394 E17.73923
G1 X177.49 Y93.516 E17.77041
G1 X177.067 Y92.639 E17.8028
G1 X176.605 Y91.863 E17.83283
G1 X176.055 Y91.102 E17.86406
G1 X175.417 Y90.367 E17.89643
G1 X174.767 Y89.74 E17.92647
G1 X174.008 Y89.128 E17.9589
G1 X173.228 Y88.608 E17.99008
G1 X172.436 Y88.173 E18.02013
G1 X171.544 Y87.783 E18.05251
G1 X170.688 Y87.495 E18.08255
G1 X169.74 Y87.267 E18.11498
G1 X168.847 Y87.135 E18.14501
G1 X167.91 Y87.079 E18.17623
G1 X167.195 Y87.068 E18.20001
G1 X67.58 Y87.067 E21.51322
G1 X66.939 Y87.081 E21.53454
G1 X65.8 Y87.177 E21.57256
G1 X64.872 Y87.349 E21.60395
G1 X63.935 Y87.611 E21.63631
G1 X63.09 Y87.931 E21.66637
G1 X62.245 Y88.338 E21.69756
G1 X61.409 Y88.837 E21.72994
G0 F6000 X61.174 Y88.513
G1 F1200 X62.071 Y87.978 E21.76468
G1 X62.948 Y87.557 E21.79704
G1 X63.793 Y87.237 E21.82709
G1 X64.799 Y86.956 E21.86183
G1 X65.766 Y86.778 E21.89453
G1 X66.905 Y86.682 E21.93255
G1 X67.58 Y86.667 E21.95501
G1 X167.201 Y86.668 E25.26841
G1 X167.934 Y86.68 E25.2928
G1 X168.905 Y86.739 E25.32515
G1 X169.834 Y86.878 E25.35639
G1 X170.782 Y87.106 E25.38882
G1 X171.704 Y87.416 E25.42118
G1 X172.629 Y87.822 E25.45478
G1 X173.421 Y88.257 E25.48483
G1 X174.23 Y88.795 E25.51714
G1 X175.045 Y89.452 E25.55196
G1 X175.695 Y90.079 E25.582
G1 X176.357 Y90.84 E25.61555
G1 X176.949 Y91.658 E25.64913
G1 X177.411 Y92.434 E25.67917
G1 X177.865 Y93.376 E25.71395
G1 X178.194 Y94.254 E25.74513
G1 X178.463 Y95.226 E25.77868
G1 X178.64 Y96.192 E25.81134
G1 X178.735 Y97.322 E25.84906
G1 X178.75 Y97.997 E25.87152
G1 X178.749 Y105.995 E26.13753
G1 X178.736 Y106.883 E26.16707
G1 X178.648 Y109.885 E26.26696
G1 X178.648 Y112.375 E26.34978
G1 X178.746 Y115.794 E26.46354
G1 X178.749 Y127.272 E26.8453
G1 X178.738 Y128.035 E26.87068
G1 X178.681 Y129.007 E26.90306
G1 X178.55 Y129.901 E26.93312
G1 X178.327 Y130.848 E26.96547
G1 X177.997 Y131.84 E27.00025
G1 X177.636 Y132.668 E27.03029
G1 X177.136 Y133.584 E27.065
G1 X176.593 Y134.394 E27.09743
G1 X176.027 Y135.098 E27.12748
G1 X175.356 Y135.801 E27.1598
G1 X174.567 Y136.489 E27.19462
G1 X173.836 Y137.02 E27.22467
G1 X173.004 Y137.522 E27.25699
G1 X172.063 Y137.978 E27.29177
G1 X171.219 Y138.298 E27.32179
G1 X170.247 Y138.573 E27.35539
G1 X169.246 Y138.759 E27.38925
G1 X168.11 Y138.857 E27.42717
G1 X167.454 Y138.872 E27.449
G1 X67.8 Y138.872 E30.7635
G1 X67.083 Y138.861 E30.78735
G1 X66.096 Y138.801 E30.82024
G1 X65.166 Y138.662 E30.85152
G1 X64.218 Y138.434 E30.88395
G1 X63.328 Y138.136 E30.91516
G1 X62.373 Y137.718 E30.94984
G1 X61.551 Y137.266 E30.98104
G1 X60.769 Y136.744 E31.01231
G1 X59.955 Y136.088 E31.04708
G1 X59.305 Y135.461 E31.07712
G1 X58.621 Y134.672 E31.11185
G1 X58.052 Y133.882 E31.14423
G1 X57.589 Y133.106 E31.17429
G1 X57.165 Y132.231 E31.20662
G1 X56.796 Y131.253 E31.24139
G1 X56.537 Y130.313 E31.27382
G1 X56.36 Y129.346 E31.30652
G1 X56.264 Y128.188 E31.34517
G1 X56.25 Y127.539 E31.36676
G1 X56.251 Y116.309 E31.74027
G1 X56.264 Y115.435 E31.76934
G1 X56.352 Y112.437 E31.8691
G1 X56.352 Y110.004 E31.95002
G1 X56.293 Y108.332 E32.00566
G1 X56.296 Y107.968 E32.01777
G1 X56.25 Y106.237 E32.07536
G1 X56.251 Y98.192 E32.34294
G1 X56.262 Y97.492 E32.36623
G1 X56.32 Y96.52 E32.39861
G1 X56.452 Y95.627 E32.42864
G1 X56.676 Y94.68 E32.461
G1 X56.995 Y93.721 E32.49462
G1 X57.385 Y92.829 E32.527
G1 X57.852 Y91.975 E32.55937
G1 X58.414 Y91.136 E32.59296
G1 X58.981 Y90.432 E32.62303
G1 X59.705 Y89.68 E32.65774
G1 X60.386 Y89.087 E32.68778
G1 X61.174 Y88.513 E32.7202
G1 F2700 E27.7202
;MESH:Retainer Rev 3.3MF
G0 F6000 X81.639 Y100.348
G0 X85.934 Y104.992
;TYPE:WALL-INNER
G1 F2700 E32.7202
G1 F1200 X85.697 Y105.083 E32.72865
G1 X82.886 Y105.083 E32.82214
G1 X82.566 Y104.992 E32.83321
G1 X82.366 Y104.784 E32.8428
G1 X80.934 Y102.307 E32.93797
G1 X80.934 Y101.927 E32.95061
G1 X82.366 Y99.45 E33.04577
G1 X82.566 Y99.242 E33.05536
G1 X82.803 Y99.151 E33.06381
G1 X85.614 Y99.151 E33.1573
G1 X85.934 Y99.242 E33.16837
G1 X86.134 Y99.45 E33.17797
G1 X87.566 Y101.927 E33.27313
G1 X87.566 Y102.307 E33.28577
G1 X86.134 Y104.784 E33.38093
G1 X85.934 Y104.992 E33.39053
G1 F2700 E28.39053
G0 F6000 X87.658 Y102.51
G0 X113.842 Y102.51
G0 X115.566 Y104.992
G1 F2700 E33.39053
G1 F1200 X115.366 Y104.784 E33.40012
G1 X113.934 Y102.307 E33.49529
G1 X113.934 Y101.927 E33.50792
G1 X115.366 Y99.45 E33.60309
G1 X115.566 Y99.242 E33.61268
G1 X115.803 Y99.151 E33.62113
G1 X118.614 Y99.151 E33.71462
G1 X118.934 Y99.242 E33.72569
G1 X119.134 Y99.45 E33.73528
G1 X120.566 Y101.927 E33.83045
G1 X120.566 Y102.307 E33.84308
G1 X119.134 Y104.784 E33.93825
G1 X118.934 Y104.992 E33.94784
G1 X118.697 Y105.083 E33.95629
G1 X115.886 Y105.083 E34.04978
G1 X115.566 Y104.992 E34.06085
G1 F2700 E29.06085
G0 F6000 X118.866 Y104.917
G0 X120.658 Y102.51
G0 X146.842 Y102.51
G0 X148.566 Y104.992
G1 F2700 E34.06085
G1 F1200 X148.366 Y104.784 E34.07044
G1 X146.934 Y102.307 E34.16561
G1 X146.934 Y101.927 E34.17825
G1 X148.366 Y99.45 E34.27341
G1 X148.566 Y99.242 E34.28301
G1 X148.803 Y99.151 E34.29145
G1 X151.614 Y99.151 E34.38494
G1 X151.934 Y99.242 E34.39601
G1 X152.134 Y99.45 E34.40561
G1 X153.566 Y101.927 E34.50077
G1 X153.566 Y102.307 E34.51341
G1 X152.134 Y104.784 E34.60857
G1 X151.934 Y104.992 E34.61817
G1 X151.697 Y105.083 E34.62661
G1 X148.886 Y105.083 E34.7201
G1 X148.566 Y104.992 E34.73117
G1 F2700 E29.73117
G0 F6000 X151.866 Y104.917
G0 X153.658 Y102.51
G0 X153.658 Y105.767
G0 X167.15 Y105.967
G1 F2700 E34.73117
G1 F1200 X167.15 Y98.267 E34.98727
G1 X67.85 Y98.267 E38.29
G1 X67.85 Y105.967 E38.54611
G1 X167.15 Y105.967 E41.84884
G0 F6000 X167.55 Y106.367
;TYPE:WALL-OUTER
G1 F1200 X167.55 Y97.867 E42.13155
G1 X67.45 Y97.867 E45.46089
G1 X67.45 Y106.367 E45.7436
G1 X167.55 Y106.367 E49.07294
G1 F2700 E44.07294
G0 F6000 X167.28 Y106.097
G0 X148.487 Y105.767
G0 X148.652 Y105.196
G0 X148.747 Y104.644
G1 F2700 E49.07294
G1 F1200 X147.323 Y102.182 E49.16754
G1 X147.323 Y102.052 E49.17186
G1 X148.712 Y99.65 E49.26415
G1 X148.851 Y99.553 E49.26978
G1 X151.614 Y99.551 E49.36168
G1 X151.753 Y99.59 E49.36648
G1 X153.177 Y102.052 E49.46108
G1 X153.177 Y102.182 E49.46541
G1 X151.788 Y104.584 E49.55769
G1 X151.649 Y104.681 E49.56333
G1 X148.886 Y104.683 E49.65523
G1 X148.747 Y104.644 E49.66003
G1 F2700 E44.66003
G0 F6000 X148.487 Y104.794
G0 X146.842 Y102.51
G0 X120.658 Y102.51
G0 X115.747 Y104.644
G1 F2700 E49.66003
G1 F1200 X114.323 Y102.182 E49.75463
G1 X114.323 Y102.052 E49.75895
G1 X115.712 Y99.65 E49.85124
G1 X115.851 Y99.553 E49.85687
G1 X118.614 Y99.551 E49.94877
G1 X118.753 Y99.59 E49.95357
G1 X120.177 Y102.052 E50.04817
G1 X120.177 Y102.182 E50.05249
G1 X118.788 Y104.584 E50.14478
G1 X118.649 Y104.681 E50.15042
G1 X115.886 Y104.683 E50.24232
G1 X115.747 Y104.644 E50.24712
G1 F2700 E45.24712
G0 F6000 X115.487 Y104.794
G0 X113.842 Y102.51
G0 X87.658 Y102.51
G0 X85.649 Y104.681
G1 F2700 E50.24712
G1 F1200 X82.886 Y104.683 E50.33902
G1 X82.747 Y104.644 E50.34382
G1 X81.323 Y102.182 E50.43841
G1 X81.323 Y102.052 E50.44274
G1 X82.712 Y99.65 E50.53502
G1 X82.851 Y99.553 E50.54066
G1 X85.614 Y99.551 E50.63256
G1 X85.753 Y99.59 E50.63736
G1 X87.177 Y102.052 E50.73196
G1 X87.177 Y102.182 E50.73628
G1 X85.788 Y104.584 E50.82857
G1 X85.649 Y104.681 E50.83421
G1 F2700 E45.83421
G0 F6000 X85.649 Y104.983
G0 X87.658 Y102.51
G0 X146.842 Y102.51
G0 X148.811 Y105.519
;TYPE:SKIN
G1 F2700 E50.83421
G1 F843.6 X148.89 Y105.525 E50.83796
G1 F848.1 X151.765 Y105.523 E50.97326
G0 F6000 X151.774 Y105.525
G1 F1086 X152.161 Y105.267 E50.99036
G1 F1200 X152.448 Y104.963 E51.00426
G1 X153.816 Y102.596 E51.09519
G1 X153.921 Y102.297 E51.10573
G1 X153.921 Y101.896 E51.11907
G1 X153.816 Y101.638 E51.12833
G1 X152.45 Y99.274 E51.21914
G1 F1083.5 X152.148 Y98.954 E51.23535
G1 F905.7 X151.689 Y98.715 E51.25816
G1 F985.6 X152.113 Y98.627 E51.27569
G1 F1200 X166.79 Y98.627 E51.76385
G1 X166.79 Y105.607 E51.99601
G1 F1191.1 X152.142 Y105.604 E52.48685
G1 F1078.7 X151.774 Y105.525 E52.50078
G1 F2700 E47.50078
G0 F6000 X151.774 Y105.867
G0 X166.978 Y105.795
G0 X166.978 Y98.439
G0 X151.593 Y98.467
G0 X151.593 Y98.971
G0 X151.689 Y98.715
G1 F2700 E52.50078
G1 F843.6 X151.61 Y98.709 E52.50453
G1 F848.1 X148.735 Y98.711 E52.63984
G1 F2700 E47.63984
G0 F6000 X148.795 Y99.049
G0 X148.208 Y99.362
G0 X119.292 Y99.362
G0 X115.735 Y98.711
G1 F2700 E52.63984
G1 F848.1 X118.61 Y98.709 E52.77514
G1 F843.6 X118.689 Y98.715 E52.77889
G1 F2700 E47.77889
G0 F6000 X118.593 Y99.048
G0 X118.866 Y99.317
G0 X120.483 Y102.117
G0 X118.72 Y105.264
G0 X118.72 Y105.767
G0 X118.774 Y105.525
G1 F2700 E52.77889
G1 F1086 X119.161 Y105.267 E52.79599
G1 F1200 X119.448 Y104.963 E52.80989
G1 X120.816 Y102.596 E52.90082
G1 X120.921 Y102.297 E52.91136
G1 X120.921 Y101.896 E52.9247
G1 X120.816 Y101.638 E52.93396
G1 X119.45 Y99.274 E53.02477
G1 F1083.5 X119.148 Y98.954 E53.04098
G1 F905.7 X118.689 Y98.715 E53.06379
G1 F985.6 X119.113 Y98.627 E53.08132
G1 F1197 X133.736 Y98.628 E53.5689
G1 F1185.2 X148.359 Y98.63 E54.06134
G1 F1179.4 X148.358 Y98.63 E54.06138
G1 F1078.7 X148.726 Y98.709 E54.0753
G1 F1086 X148.339 Y98.967 E54.0924
G1 F1200 X148.052 Y99.271 E54.1063
G1 X146.684 Y101.638 E54.19723
G1 X146.579 Y101.937 E54.20777
G1 X146.579 Y102.338 E54.22111
G1 X146.684 Y102.596 E54.23037
G1 X148.05 Y104.96 E54.32118
G1 F1083.5 X148.352 Y105.28 E54.33739
G1 F905.7 X148.811 Y105.519 E54.3602
G1 F985.6 X148.387 Y105.607 E54.37773
G1 F1197 X133.764 Y105.606 E54.86531
G1 F1185.2 X119.141 Y105.604 E55.35775
G1 F1078.7 X118.774 Y105.525 E55.37164
G0 F6000 X118.765 Y105.523
G1 F848.1 X115.89 Y105.525 E55.50695
G1 F843.6 X115.811 Y105.519 E55.5107
G1 F985.6 X115.387 Y105.607 E55.52823
G1 F1197 X100.764 Y105.606 E56.01581
G1 F1185.2 X86.141 Y105.604 E56.50826
G1 F1078.7 X85.774 Y105.525 E56.52215
G1 F1086 X86.161 Y105.267 E56.53924
G1 F1200 X86.448 Y104.963 E56.55315
G1 X87.816 Y102.596 E56.64408
G1 X87.921 Y102.297 E56.65462
G1 X87.921 Y101.896 E56.66795
G1 X87.816 Y101.638 E56.67722
G1 X86.45 Y99.274 E56.76803
G1 F1083.5 X86.148 Y98.954 E56.78423
G1 F905.7 X85.689 Y98.715 E56.80704
G1 F985.6 X86.113 Y98.627 E56.82458
G1 F1197 X100.736 Y98.628 E57.31215
G1 F1185.2 X115.359 Y98.63 E57.8046
G1 F1179.4 X115.358 Y98.63 E57.80463
G1 F1078.7 X115.726 Y98.709 E57.81856
G1 F1086 X115.339 Y98.967 E57.83565
G1 F1200 X115.052 Y99.271 E57.84956
G1 X113.684 Y101.638 E57.94049
G1 X113.579 Y101.937 E57.95103
G1 X113.579 Y102.338 E57.96436
G1 X113.684 Y102.596 E57.97363
G1 X115.05 Y104.96 E58.06444
