;FLAVOR:Marlin
;TIME:649
;Filament used: 0.344276m
;Layer height: 0.2
;MINX:73.79
;MINY:103.781
;MINZ:0.2
;MAXX:139.847
;MAXY:140.781
;MAXZ:5
;Generated with Cura_SteamEngine 5.3.1
M140 S50
M105
M190 S50
M104 S200
M105
M109 S200
M82 ;absolute extrusion mode
; Ender 3 Custom Start G-code
G92 E0 ; Reset Extruder
G28 ; Home all axes
G1 Z2.0 F3000 ; Move Z Axis up little to prevent scratching of Heat Bed
G1 X0.1 Y20 Z0.3 F5000.0 ; Move to start position
G1 X0.1 Y200.0 Z0.3 F1500.0 E15 ; Draw the first line
G1 X0.4 Y200.0 Z0.3 F5000.0 ; Move to side a little
G1 X0.4 Y20 Z0.3 F1500.0 E30 ; Draw the second line
G92 E0 ; Reset Extruder
G1 Z2.0 F3000 ; Move Z Axis up little to prevent scratching of Heat Bed
G1 X5 Y20 Z0.3 F5000.0 ; Move over to prevent blob squish
G92 E0
G92 E0
G1 F2700 E-5
;LAYER_COUNT:25
;LAYER:0
M107
G0 F6000 X79.18 Y110.936 Z0.2
;TYPE:SKIRT
G1 F2700 E0
G1 F1200 X79.954 Y110.472 E0.03001
G1 X80.767 Y110.079 E0.06005
G1 X81.612 Y109.759 E0.0901
G1 X82.482 Y109.515 E0.12015
G1 X83.369 Y109.349 E0.15017
G1 X84.496 Y109.253 E0.18779
G1 X85.993 Y109.208 E0.2376
G1 X86.902 Y109.189 E0.26784
G1 X89.411 Y109.063 E0.3514
G1 X91.946 Y108.866 E0.43596
G1 X94.477 Y108.595 E0.52063
G1 X96.978 Y108.257 E0.60457
G1 X99.495 Y107.843 E0.68941
G1 X102.022 Y107.354 E0.77502
G1 X104.448 Y106.814 E0.85768
G1 X106.905 Y106.192 E0.94198
G1 X109.438 Y105.474 E1.02954
G1 X110.859 Y105.039 E1.07897
G1 X111.733 Y104.813 E1.109
G1 X112.624 Y104.665 E1.13904
G1 X113.538 Y104.596 E1.16952
G1 X114.177 Y104.581 E1.19078
G1 X128.14 Y104.581 E1.65519
G1 X128.984 Y104.592 E1.68327
G1 X129.886 Y104.645 E1.71332
G1 X130.779 Y104.777 E1.74335
G1 X131.657 Y104.988 E1.77338
G1 X132.513 Y105.276 E1.80342
G1 X133.34 Y105.638 E1.83344
G1 X134.132 Y106.073 E1.8635
G1 X134.883 Y106.575 E1.89354
G1 X135.586 Y107.142 E1.92358
G1 X136.236 Y107.769 E1.95362
G1 X136.828 Y108.451 E1.98366
G1 X137.358 Y109.182 E2.01369
G1 X137.82 Y109.958 E2.04373
G1 X138.213 Y110.771 E2.07376
G1 X138.531 Y111.616 E2.10379
G1 X138.774 Y112.486 E2.13383
G1 X138.939 Y113.374 E2.16387
G1 X139.034 Y114.504 E2.20159
G1 X139.047 Y115.111 E2.22178
G1 X139.046 Y129.171 E2.68942
G1 X139.037 Y129.898 E2.7136
G1 X138.986 Y130.8 E2.74365
G1 X138.855 Y131.694 E2.7737
G1 X138.646 Y132.572 E2.80372
G1 X138.36 Y133.429 E2.83377
G1 X137.999 Y134.257 E2.86381
G1 X137.567 Y135.049 E2.89382
G1 X137.066 Y135.801 E2.92387
G1 X136.5 Y136.505 E2.95392
G1 X135.875 Y137.156 E2.98393
G1 X135.194 Y137.75 E3.01399
G1 X134.463 Y138.281 E3.04404
G1 X133.689 Y138.745 E3.07406
G1 X132.876 Y139.139 E3.1041
G1 X132.032 Y139.459 E3.13413
G1 X131.162 Y139.704 E3.16419
G1 X130.275 Y139.87 E3.1942
G1 X129.124 Y139.968 E3.23262
G1 X128.517 Y139.981 E3.25282
G1 X114.396 Y139.98 E3.72248
G1 X113.686 Y139.969 E3.7461
G1 X112.784 Y139.915 E3.77615
G1 X112.257 Y139.846 E3.79383
G1 X110.859 Y139.626 E3.8409
G1 X108.236 Y139.255 E3.92901
G1 X105.747 Y138.973 E4.01233
G1 X103.212 Y138.76 E4.09694
G1 X100.716 Y138.62 E4.18008
G1 X96.814 Y138.539 E4.30989
G1 X85.351 Y138.538 E4.69115
G1 X84.653 Y138.528 E4.71437
G1 X83.751 Y138.475 E4.74442
G1 X82.858 Y138.343 E4.77445
G1 X81.98 Y138.132 E4.80448
G1 X81.124 Y137.844 E4.83452
G1 X80.297 Y137.482 E4.86455
G1 X79.505 Y137.047 E4.8946
G1 X78.754 Y136.545 E4.92465
G1 X78.051 Y135.978 E4.95469
G1 X77.401 Y135.351 E4.98472
G1 X76.809 Y134.669 E5.01476
G1 X76.279 Y133.938 E5.04479
G1 X75.817 Y133.162 E5.07483
G1 X75.424 Y132.349 E5.10486
G1 X75.106 Y131.504 E5.13489
G1 X74.863 Y130.634 E5.16494
G1 X74.698 Y129.746 E5.19498
G1 X74.603 Y128.605 E5.23306
G1 X74.59 Y127.997 E5.25328
G1 X74.591 Y120.004 E5.51913
G1 X74.6 Y119.315 E5.54205
G1 X74.652 Y118.413 E5.5721
G1 X74.783 Y117.52 E5.60212
G1 X74.993 Y116.641 E5.63218
G1 X75.279 Y115.785 E5.6622
G1 X75.641 Y114.957 E5.69225
G1 X76.074 Y114.165 E5.72228
G1 X76.575 Y113.414 E5.7523
G1 X77.141 Y112.71 E5.78235
G1 X77.767 Y112.059 E5.81238
G1 X78.449 Y111.466 E5.84244
G1 X79.18 Y110.936 E5.87248
G0 F6000 X78.945 Y110.612
G1 F1200 X79.748 Y110.129 E5.90364
G1 X80.625 Y109.705 E5.93604
G1 X81.47 Y109.385 E5.96609
G1 X82.408 Y109.122 E5.9985
G1 X83.335 Y108.95 E6.02985
G1 X84.484 Y108.853 E6.06821
G1 X85.985 Y108.808 E6.11815
G1 X86.894 Y108.789 E6.14839
G1 X89.38 Y108.665 E6.23118
G1 X91.905 Y108.468 E6.31542
G1 X94.434 Y108.198 E6.40001
G1 X96.913 Y107.862 E6.48321
G1 X99.426 Y107.449 E6.56792
G1 X101.946 Y106.962 E6.65328
G1 X104.35 Y106.426 E6.73521
G1 X106.807 Y105.804 E6.8195
G1 X109.329 Y105.09 E6.90668
G1 X110.759 Y104.652 E6.95643
G1 X111.667 Y104.418 E6.98761
G1 X112.558 Y104.27 E7.01765
G1 X113.529 Y104.196 E7.05004
G1 X114.168 Y104.181 E7.0713
G1 X128.145 Y104.181 E7.53618
G1 X129.007 Y104.193 E7.56485
G1 X129.944 Y104.249 E7.59607
G1 X130.837 Y104.381 E7.6261
G1 X131.785 Y104.609 E7.65853
G1 X132.641 Y104.897 E7.68856
G1 X133.533 Y105.287 E7.72094
G1 X134.325 Y105.722 E7.751
G1 X135.105 Y106.242 E7.78218
G1 X135.864 Y106.854 E7.81461
G1 X136.514 Y107.481 E7.84464
G1 X137.152 Y108.216 E7.87702
G1 X137.702 Y108.977 E7.90824
G1 X138.164 Y109.753 E7.93828
G1 X138.587 Y110.63 E7.97067
G1 X138.916 Y111.508 E8.00185
G1 X139.167 Y112.413 E8.03309
G1 X139.338 Y113.34 E8.06444
G1 X139.433 Y114.47 E8.10216
G1 X139.447 Y115.111 E8.12348
G1 X139.446 Y129.176 E8.59129
G1 X139.436 Y129.921 E8.61607
G1 X139.382 Y130.858 E8.64728
G1 X139.251 Y131.752 E8.67734
G1 X139.035 Y132.665 E8.70854
G1 X138.727 Y133.589 E8.74094
G1 X138.366 Y134.417 E8.77098
G1 X137.9 Y135.271 E8.80334
G1 X137.378 Y136.052 E8.83458
G1 X136.812 Y136.756 E8.86463
G1 X136.164 Y137.433 E8.89579
G1 X135.429 Y138.074 E8.92823
G1 X134.698 Y138.605 E8.95828
G1 X133.895 Y139.088 E8.98945
G1 X133.018 Y139.513 E9.02186
G1 X132.174 Y139.833 E9.05188
G1 X131.236 Y140.097 E9.08429
G1 X130.309 Y140.269 E9.11565
G1 X129.158 Y140.367 E9.15407
G1 X128.517 Y140.381 E9.1754
G1 X114.39 Y140.38 E9.64526
G1 X113.662 Y140.368 E9.66948
G1 X112.732 Y140.312 E9.70047
G1 X112.195 Y140.241 E9.71849
G1 X110.803 Y140.022 E9.76535
G1 X108.18 Y139.651 E9.85346
G1 X105.714 Y139.372 E9.93601
G1 X103.179 Y139.158 E10.02062
G1 X100.708 Y139.02 E10.10293
G1 X96.806 Y138.939 E10.23274
G1 X85.345 Y138.938 E10.61394
G1 X84.63 Y138.927 E10.63772
G1 X83.693 Y138.871 E10.66894
G1 X82.8 Y138.739 E10.69897
G1 X81.852 Y138.511 E10.73139
G1 X80.996 Y138.223 E10.76143
G1 X80.104 Y137.833 E10.79381
G1 X79.312 Y137.398 E10.82387
G1 X78.532 Y136.878 E10.85505
G1 X77.773 Y136.266 E10.88748
G1 X77.123 Y135.639 E10.91751
G1 X76.485 Y134.904 E10.94988
G1 X75.935 Y134.143 E10.98111
G1 X75.473 Y133.367 E11.01115
G1 X75.05 Y132.49 E11.04354
G1 X74.721 Y131.612 E11.07472
G1 X74.47 Y130.707 E11.10596
G1 X74.299 Y129.779 E11.13734
G1 X74.203 Y128.614 E11.17622
G1 X74.19 Y127.997 E11.19675
G1 X74.191 Y119.999 E11.46276
G1 X74.201 Y119.292 E11.48628
G1 X74.256 Y118.355 E11.5175
G1 X74.387 Y117.462 E11.54752
G1 X74.604 Y116.548 E11.57876
G1 X74.912 Y115.625 E11.61113
G1 X75.274 Y114.797 E11.64118
G1 X75.741 Y113.943 E11.67356
G1 X76.263 Y113.163 E11.70477
G1 X76.829 Y112.459 E11.73482
G1 X77.505 Y111.757 E11.76723
G1 X78.214 Y111.142 E11.79845
G1 X78.945 Y110.612 E11.82848
G0 F6000 X78.71 Y110.288
G1 F1200 X79.542 Y109.786 E11.8608
G1 X80.483 Y109.331 E11.89556
G1 X81.328 Y109.011 E11.92562
G1 X82.3 Y108.737 E11.9592
G1 X83.301 Y108.551 E11.99307
G1 X84.472 Y108.453 E12.03215
G1 X86.874 Y108.389 E12.11207
G1 X89.36 Y108.265 E12.19486
G1 X91.868 Y108.069 E12.27853
G1 X94.392 Y107.8 E12.36295
G1 X96.848 Y107.467 E12.44539
G1 X99.357 Y107.055 E12.52996
G1 X101.87 Y106.57 E12.61508
G1 X104.252 Y106.038 E12.69626
G1 X106.709 Y105.416 E12.78056
G1 X109.22 Y104.706 E12.86735
G1 X110.659 Y104.265 E12.9174
G1 X111.601 Y104.023 E12.94975
G1 X112.492 Y103.875 E12.97979
G1 X113.52 Y103.796 E13.01409
G1 X114.159 Y103.781 E13.03535
G1 X128.151 Y103.781 E13.50072
G1 X129.031 Y103.794 E13.52999
G1 X130.002 Y103.853 E13.56235
G1 X130.931 Y103.992 E13.59359
G1 X131.879 Y104.22 E13.62602
G1 X132.801 Y104.53 E13.65837
G1 X133.726 Y104.936 E13.69197
G1 X134.518 Y105.371 E13.72203
G1 X135.327 Y105.909 E13.75434
G1 X136.142 Y106.566 E13.78916
G1 X136.792 Y107.193 E13.8192
G1 X137.454 Y107.954 E13.85274
G1 X138.046 Y108.772 E13.88633
G1 X138.508 Y109.548 E13.91637
G1 X138.962 Y110.49 E13.95115
G1 X139.291 Y111.368 E13.98233
G1 X139.56 Y112.34 E14.01588
G1 X139.737 Y113.306 E14.04854
G1 X139.832 Y114.436 E14.08626
G1 X139.847 Y115.111 E14.10871
G1 X139.846 Y129.181 E14.57668
G1 X139.835 Y129.944 E14.60206
G1 X139.778 Y130.916 E14.63445
G1 X139.647 Y131.81 E14.6645
G1 X139.424 Y132.757 E14.69686
G1 X139.094 Y133.749 E14.73163
G1 X138.733 Y134.577 E14.76167
G1 X138.233 Y135.493 E14.79638
G1 X137.69 Y136.303 E14.82882
G1 X137.124 Y137.007 E14.85886
G1 X136.453 Y137.71 E14.89118
G1 X135.664 Y138.398 E14.926
G1 X134.933 Y138.929 E14.95605
G1 X134.101 Y139.431 E14.98837
G1 X133.16 Y139.887 E15.02315
G1 X132.316 Y140.207 E15.05317
G1 X131.344 Y140.482 E15.08677
G1 X130.343 Y140.668 E15.12063
G1 X129.192 Y140.766 E15.15905
G1 X128.526 Y140.781 E15.18121
G1 X114.383 Y140.78 E15.65161
G1 X113.638 Y140.767 E15.67639
G1 X112.68 Y140.709 E15.70831
G1 X112.133 Y140.636 E15.72667
G1 X110.747 Y140.418 E15.77333
G1 X108.124 Y140.047 E15.86144
G1 X105.68 Y139.771 E15.94325
G1 X103.145 Y139.556 E16.02786
G1 X100.7 Y139.42 E16.10931
G1 X96.798 Y139.339 E16.23912
G1 X85.339 Y139.338 E16.62025
G1 X84.606 Y139.326 E16.64463
G1 X83.635 Y139.267 E16.67699
G1 X82.706 Y139.128 E16.70823
G1 X81.758 Y138.9 E16.74066
G1 X80.836 Y138.59 E16.77301
G1 X79.911 Y138.184 E16.80661
G1 X79.119 Y137.749 E16.83666
G1 X78.31 Y137.211 E16.86898
G1 X77.495 Y136.554 E16.9038
G1 X76.845 Y135.927 E16.93383
G1 X76.183 Y135.166 E16.96738
G1 X75.591 Y134.348 E17.00097
G1 X75.129 Y133.572 E17.031
G1 X74.675 Y132.63 E17.06578
G1 X74.346 Y131.752 E17.09697
G1 X74.077 Y130.779 E17.13054
G1 X73.9 Y129.812 E17.16324
G1 X73.804 Y128.647 E17.20212
G1 X73.79 Y127.997 E17.22375
G1 X73.791 Y119.993 E17.48996
G1 X73.802 Y119.269 E17.51404
G1 X73.86 Y118.297 E17.54643
G1 X73.991 Y117.404 E17.57645
G1 X74.225 Y116.421 E17.61006
G1 X74.545 Y115.465 E17.64359
G1 X74.907 Y114.637 E17.67364
G1 X75.39 Y113.751 E17.70721
G1 X75.951 Y112.912 E17.74077
G1 X76.517 Y112.208 E17.77082
G1 X77.243 Y111.455 E17.80561
G1 X77.979 Y110.818 E17.83798
G1 X78.71 Y110.288 E17.86801
G1 F2700 E12.86801
;MESH:Retainer_V2.3MF
G0 F6000 X90.248 Y121.134
G0 X93.974 Y126.764
;TYPE:WALL-INNER
G1 F2700 E17.86801
G1 F1200 X93.737 Y126.855 E17.87646
G1 X90.926 Y126.855 E17.96995
G1 X90.606 Y126.764 E17.98102
G1 X90.406 Y126.556 E17.99062
G1 X89.037 Y124.19 E18.08153
G1 X88.965 Y123.993 E18.08851
G1 X88.966 Y123.782 E18.09553
G1 X89.037 Y123.588 E18.1024
G1 X90.406 Y121.222 E18.19331
G1 X90.606 Y121.014 E18.20291
G1 X90.843 Y120.923 E18.21136
G1 X93.654 Y120.923 E18.30485
G1 X93.974 Y121.014 E18.31592
G1 X94.174 Y121.222 E18.32551
G1 X95.542 Y123.588 E18.41641
G1 X95.614 Y123.785 E18.42339
G1 X95.613 Y123.996 E18.43041
G1 X95.542 Y124.19 E18.43728
G1 X94.174 Y126.556 E18.52818
G1 X93.974 Y126.764 E18.53778
G1 F2700 E13.53778
G0 F6000 X95.075 Y125.358
G0 X95.075 Y127.539
G0 X99.19 Y127.739
G1 F2700 E18.53778
G1 F1200 X99.19 Y120.039 E18.79388
G1 X85.39 Y120.039 E19.25287
G1 X85.39 Y127.739 E19.50897
G1 X99.19 Y127.739 E19.96796
G0 F6000 X99.59 Y128.139
;TYPE:WALL-OUTER
G1 F1200 X99.59 Y119.639 E20.25067
G1 X84.99 Y119.639 E20.73627
G1 X84.99 Y128.139 E21.01898
G1 X99.59 Y128.139 E21.50458
G1 F2700 E16.50458
G0 F6000 X99.32 Y127.869
G0 X93.689 Y127.539
G0 X93.689 Y127.035
G0 X93.689 Y126.453
G1 F2700 E21.50458
G1 F1200 X90.926 Y126.455 E21.59648
G1 X90.787 Y126.416 E21.60128
G1 X89.356 Y123.943 E21.69631
G1 X89.383 Y123.788 E21.70154
G1 X90.752 Y121.422 E21.79246
G1 X90.891 Y121.325 E21.7981
G1 X93.654 Y121.323 E21.89
G1 X93.793 Y121.362 E21.8948
G1 X95.223 Y123.835 E21.98981
G1 X95.196 Y123.99 E21.99504
G1 X93.828 Y126.356 E22.08594
G1 X93.689 Y126.453 E22.09158
G0 F6000 X93.689 Y126.755
G0 X95.523 Y123.889
G0 X93.906 Y121.089
G0 X90.835 Y120.821
G0 X90.775 Y120.483
;TYPE:SKIN
G1 F848.1 X93.65 Y120.481 E22.22689
G1 F843.6 X93.729 Y120.487 E22.23064
G1 F2700 E17.23064
G0 F6000 X93.633 Y120.82
G0 X93.906 Y121.089
G0 X95.523 Y123.889
G0 X93.76 Y127.036
G0 X93.76 Y127.539
G0 X93.814 Y127.297
G1 F2700 E22.23064
G1 F1086 X94.201 Y127.039 E22.24773
G1 F1200 X94.488 Y126.735 E22.26164
G1 X95.852 Y124.374 E22.35233
G1 X95.968 Y124.057 E22.36355
G1 X95.971 Y123.723 E22.37466
G1 X95.851 Y123.401 E22.38609
G1 X94.49 Y121.046 E22.47656
G1 F1083.5 X94.188 Y120.726 E22.49277
G1 F905.7 X93.729 Y120.487 E22.51557
G1 F985.6 X94.153 Y120.399 E22.53311
G1 F1200 X98.83 Y120.399 E22.68867
G1 X98.83 Y127.379 E22.92082
G1 F1191.1 X94.182 Y127.376 E23.07657
G1 F1078.7 X93.814 Y127.297 E23.0905
G1 F2700 E18.0905
G0 F6000 X93.814 Y127.639
G0 X90.947 Y127.539
G0 X90.947 Y127.035
G0 X90.851 Y127.291
G1 F2700 E23.0905
G1 F985.6 X90.427 Y127.379 E23.10804
G1 F1200 X85.75 Y127.379 E23.26359
G1 X85.75 Y120.399 E23.49575
G1 F1191.1 X90.398 Y120.402 E23.6515
G1 F1078.7 X90.766 Y120.481 E23.66543
G1 F1086 X90.379 Y120.739 E23.68252
G1 F1200 X90.092 Y121.043 E23.69643
G1 X88.728 Y123.401 E23.78703
G1 X88.609 Y123.717 E23.79826
G1 X88.61 Y124.054 E23.80947
G1 X88.727 Y124.374 E23.8208
G1 X90.09 Y126.732 E23.91139
G1 F1083.5 X90.392 Y127.052 E23.9276
G1 F905.7 X90.851 Y127.291 E23.9504
G1 F843.6 X90.93 Y127.297 E23.95415
G1 F848.1 X93.805 Y127.295 E24.08946
G1 F2700 E19.08946
G0 F6000 X93.745 Y126.957
G0 X90.248 Y126.644
G0 X90.248 Y127.539
G0 X86.448 Y127.177
G1 F2700 E24.08946
G1 F1200 X85.949 Y126.678 E24.11293
G0 F6000 X85.949 Y126.113
G1 F1200 X87.013 Y127.177 E24.16298
G0 F6000 X87.579 Y127.177
G1 F1200 X85.949 Y125.547 E24.23965
G0 F6000 X85.949 Y124.981
G1 F1200 X88.145 Y127.177 E24.34294
G0 F6000 X88.71 Y127.177
G1 F1200 X85.949 Y124.416 E24.47281
G0 F6000 X85.949 Y123.85
G1 F1200 X89.276 Y127.177 E24.6293
G0 F6000 X89.842 Y127.177
G1 F1200 X85.949 Y123.284 E24.81242
G0 F6000 X85.949 Y122.719
G1 F1200 X89.718 Y126.487 E24.98968
G0 F6000 X89.953 Y125.973
G0 X89.342 Y124.917
G0 X88.943 Y125.147
G1 F1200 X85.949 Y122.153 E25.1305
G0 F6000 X85.949 Y121.587
G1 F1200 X88.412 Y124.05 E25.24636
G0 F6000 X88.463 Y123.535
G1 F1200 X85.949 Y121.022 E25.36458
G0 F6000 X86.092 Y120.599
G1 F1200 X88.642 Y123.149 E25.48453
G0 F6000 X88.85 Y122.791
G1 F1200 X86.658 Y120.599 E25.58763
G0 F6000 X87.223 Y120.599
G1 F1200 X89.057 Y122.432 E25.67388
G0 F6000 X89.264 Y122.074
G1 F1200 X87.789 Y120.599 E25.74325
G0 F6000 X88.355 Y120.599
G1 F1200 X89.471 Y121.715 E25.79575
G0 F6000 X89.678 Y121.357
G1 F1200 X88.92 Y120.599 E25.8314
G0 F6000 X89.486 Y120.599
G1 F1200 X89.885 Y120.998 E25.85017
G0 F6000 X90.145 Y120.692
G1 F1200 X90.052 Y120.599 E25.85454
G1 F2700 E20.85454
G0 F6000 X90.052 Y120.139
G0 X94.314 Y120.239
G0 X94.07 Y120.862
G0 X94.578 Y120.599
G1 F2700 E25.85454
G1 F1200 X98.63 Y124.651 E26.04514
G0 F6000 X98.63 Y125.217
G1 F1200 X95.08 Y121.667 E26.21212
G0 F6000 X94.68 Y121.898
G0 X94.332 Y121.134
G0 X94.332 Y120.239
G0 X95.144 Y120.599
G1 F1200 X98.63 Y124.085 E26.37609
G0 F6000 X98.63 Y123.52
G1 F1200 X95.709 Y120.599 E26.51348
G0 F6000 X96.275 Y120.599
G1 F1200 X98.63 Y122.954 E26.62426
G0 F6000 X98.63 Y122.388
G1 F1200 X96.84 Y120.599 E26.70843
G0 F6000 X97.406 Y120.599
G1 F1200 X98.63 Y121.823 E26.766
G0 F6000 X98.63 Y121.257
G1 F1200 X97.971 Y120.599 E26.79698
G0 F6000 X98.537 Y120.599
G1 F1200 X98.63 Y120.691 E26.80133
G1 F2700 E21.80133
G0 F6000 X99.09 Y120.691
G0 X99.018 Y120.211
G0 X95.455 Y120.239
G0 X94.332 Y121.134
G0 X95.855 Y123.008
G1 F2700 E26.80133
G1 F1200 X98.63 Y125.782 E26.93183
G0 F6000 X98.63 Y126.348
G1 F1200 X96.167 Y123.886 E27.04766
G0 F6000 X96.07 Y124.354
G1 F1200 X98.63 Y126.914 E27.16807
G0 F6000 X98.328 Y127.178
G1 F1200 X95.878 Y124.727 E27.28334
G0 F6000 X95.67 Y125.086
G1 F1200 X97.762 Y127.178 E27.38174
G0 F6000 X97.196 Y127.178
G1 F1200 X95.463 Y125.444 E27.46328
G0 F6000 X95.256 Y125.803
G1 F1200 X96.631 Y127.178 E27.52795
G0 F6000 X96.064 Y127.177
G1 F1200 X95.049 Y126.161 E27.57572
G0 F6000 X94.842 Y126.52
